!!!cenid: 16xx:1686
!!!COM: Förster, Kaspar
!!!COM-rismid:
!!!CDT:
!!!CNT:
!!!OTL: Sonata -
!!!PDT:
!!!AGN:
!!!SMS-siglum: S-Uu
!!!SMS-shelfmark: Instr. mus. i hs. 3:8
!!!SMS-shelfwork:
!!!SMS-variant:
!!!SMS-altvar:
!!!NIFC-rismid: 190008745
!!!URL-scan: https://www2.musik.uu.se/duben/presentationSource1.php?Select_Dnr=2118
!!!ONB-nifc: UWAGA: poszczególne partie dostępne po kliknięciu w „browse part”. Informacje nt stron tytułowych w opisie na stronie lub na RISM.
!!!key: C
**kern	**fba	**kern	**kern	**kern	**kern	**kern	**kern	**kern
*part8	*part8	*part7	*part6	*part5	*part4	*part3	*part2	*part1
*staff8	*staff8	*staff7	*staff6	*staff5	*staff4	*staff3	*staff2	*staff1
*I"[Continuo]	*	*I"Violono .	*I"Viola.	*I"Violino. 2do.	*I"Violino Imo.	*I"Fagotto .	*I"Cornettino. 2do.	*I"Cornettino. Imo
*I'bc	*	*I'vlne	*I'vla	*I'vl 2	*I'vl 1	*I'fag	*I'cnto 2	*I'cnto 1
*	*	*Icello	*Iviola	*Ivioln	*Ivioln	*Ifagot	*Icornt	*Icornt
*	*	*ICstr	*ICstr	*ICstr	*ICstr	*ICww	*ICww	*ICww
*IGcont	*	*	*	*	*	*	*	*
*clefF4	*	*clefF4	*clefC3	*clefG2	*clefG2	*clefF4	*clefG2	*clefG2
*k[]	*	*k[]	*k[]	*k[]	*k[]	*k[]	*k[]	*k[]
*M2/2	*	*M2/2	*M2/2	*M2/2	*M2/2	*M2/2	*M2/2	*M2/2
*met(c|)	*	*met(c|)	*met(c|)	*met(c|)	*met(c|)	*met(c|)	*met(c|)	*met(c|)
=1-	=1-	=1-	=1-	=1-	=1-	=1-	=1-	=1-
!!LO:all\right
!LO:TX:a:t=Sonata . a. 7. 2 Cornettini 2. Violini . 1 Braccio, Fa	!	!LO:TX:a:t=a. 7.	!LO:TX:a:t=Sonata a 7.	!LO:TX:a:t=Sonata a 7.	!LO:TX:a:t=a 7.	!LO:TX:b:t=Sonata	!LO:TX:b:t=adagio	!LO:TX:b:t=adagio
!LO:TX:b:t=Adagio	!	!LO:TX:a:t=Adagio	!LO:TX:b:t=Adagio	!LO:TX:b:t=Adagio	!LO:TX:b:t=Adagio	!LO:TX:a:t=à 7.	!LO:TX:a:t=a 7.	!LO:TX:a:t=a 7.
4r	.	4r	4r	4r	4r	4r	4r	4r
*	*	*	*2\right	*2\right	*2\right	*	*2\right	*2\right
2C/	.	2CC/	2g\	2ee\	2ccc\	2C/	2ee\	2gg\
4C/	.	8CC/L	8e\L	8gg\L	8ccc\L	8C/L	8ee\L	8gg\L
!	!	!	!	!LO:TX:t=P:problem:kreska pseudotaktowa	!	!	!	!LO:TX:t=P:problem:kreska pseudotaktowa
.	.	8CC/J	8e\J	8gg\J	8ccc\J	8C/J	8ee\J	8gg\J
=2-	=2-	=2-	=2-	=2-	=2-	=2-	=2-	=2-
4FF/	6:5 5:4:3	4FF/	8A/L	4ff\	4.ccc\	4FF/	4.dd\	4aa\
.	.	.	8d/J	.	.	.	.	.
4GG/	.	4GG/	4d\	8dd\L	.	4GG/	.	4gg\
.	.	.	.	8gg\J	8bb\	.	8dd\	.
!LO:TX:t=P:problem:kreska pseudotaktowa	!	!LO:TX:t=P:problem:kreska pseudotaktowa	!LO:TX:t=P:problem:kreska pseudotaktowa	!LO:TX:t=P:problem:kreska pseudotaktowa	!LO:TX:t=P:problem:kreska pseudotaktowa	!LO:TX:t=P:problem:kreska pseudotaktowa	!LO:TX:t=P:problem:kreska pseudotaktowa	!
2C/	.	2CC/	2c/	2ee\	2ccc\	2C/	2ee\	2gg\
=3-	=3-	=3-	=3-	=3-	=3-	=3-	=3-	=3-
4r	.	4r	4r	4r	4r	4r	4r	4r
2GG/	.	2GG/	2d\	2gg\	2bb\	2GG/	2dd\	2gg\
4GG/	.	8GG/L	8d\L	8gg\L	8bb\L	8GG/L	8dd\L	8b/L
!	!	!LO:TX:t=P:problem:kreska pseudotaktowa	!	!	!	!	!	!
.	.	8GG/J	8d\J	8gg\J	8bb\J	8GG/J	8dd\J	8b/J
=4-	=4-	=4-	=4-	=4-	=4-	=4-	=4-	=4-
4C/	6 5	4CC/	8c/L	4.gg\	4.aa\	4C/	4ee\	4cc\
.	.	.	8A/	.	.	.	.	.
4D/	5 4#r	4DD/	8A/	.	.	4D/	4dd\	4a/
!	!	!	!	!LO:TX:t=P:problem:♯above	!	!	!	!
.	.	.	8d/J	8ff#X\	8aa\	.	.	.
!LO:TX:t=P:problem:kreska pseudotaktowa	!	!LO:TX:a:t=allegro	!	!LO:TX:b:t=Allegro	!LO:TX:b:t=allegro .	!LO:TX:t=P:problem:kreska pseudotaktowa	!LO:TX:t=P:problem:kreska pseudotaktowa	!LO:TX:t=P:problem:kreska pseudotaktowa
2GG/	.	8GG/L	8B/L	8gg\L	8bb\L	2GG/	2dd\	2g/
.	.	16GG/L	16d/L	16gg\L	16bb\L	.	.	.
.	.	16GG/JJ	16d/JJ	16gg\JJ	16bb\JJ	.	.	.
.	.	8GG/L	8d/L	8gg\L	8bb\L	.	.	.
!	!	!LO:TX:t=P:problem:kreska pseudotaktowa	!LO:TX:t=P:problem:kreska pseudotaktowa	!LO:TX:t=P:problem:kreska pseudotaktowa	!LO:TX:t=P:problem:kreska pseudotaktowa	!	!	!
.	.	8GG/J	8d/J	8gg\J	8bb\J	.	.	.
=5-	=5-	=5-	=5-	=5-	=5-	=5-	=5-	=5-
!LO:TX:b:t=allegro	!	!	!	!	!	!LO:TX:a:t=allegro	!LO:TX:b:t=allegro	!LO:TX:b:t=allegro.
2D/	x #	4D/	4d\	4ff#X\	4aa\	8r	8r	8r
!	!	!	!	!	!	!	!	!LO:TX:t=P:problem:♯above
.	.	.	.	.	.	16DD/LL	16dd\LL	16ff#X\LL
.	.	.	.	.	.	16DD/JJ	16dd\JJ	16ff#\JJ
.	.	4r	4r	4r	4r	8DD/L	8dd\L	8ff#\L
.	.	.	.	.	.	8DD/J	8dd\J	8ff#\J
8AA/L	x #	2r	2r	2r	2r	8AA/L	8cc#X\L	8ee\L
!	!	!	!	!	!	!LO:TX:t=P:problem:♯below	!	!LO:TX:t=P:problem:♯above
8FF#X/	x 6	.	.	.	.	8FF#X/	8dd\	8ff#X\
8GG/	.	.	.	.	.	8GG/	8b\	8dd\
!LO:TX:t=P:problem:kreska pseudotaktowa	!	!	!	!	!	!LO:TX:t=P:problem:kreska pseudotaktowa	!LO:TX:t=P:problem:kreska pseudotaktowa	!LO:TX:t=P:problem:kreska pseudotaktowa
8EE/J	x -	.	.	.	.	8EE/J	8ee\J	8gg\J
=6-	=6-	=6-	=6-	=6-	=6-	=6-	=6-	=6-
!	!	!	!	!	!	!	!	!LO:TX:t=P:problem:♯above
2BB/	x5 4#r	8r	2r	2r	8r	2BBB/	4.ee\	4.ff#X\
.	.	16BB/LL	.	.	16bb\LL	.	.	.
.	.	16BB/JJ	.	.	16bb\JJ	.	.	.
.	.	8BB/L	.	.	8bb\L	.	.	.
.	.	8BB/J	.	.	8bb\J	.	8dd#X\	8ff#\
*2\right	*	*	*	*	*	*	*	*
!LO:TX:t=P:problem:kreska pseudotaktowa	!	!	!	!	!	!	!	!
2E\	x -	4.EE/	8r	8r	4.gg\	2EE/	2ee\	2gg\
.	.	.	16B/LL	16ee\LL	.	.	.	.
.	.	.	16B/JJ	16ee\JJ	.	.	.	.
.	.	.	8B/L	8ee\L	.	.	.	.
!	!	!LO:TX:t=P:problem:kreska pseudotaktowa	!LO:TX:t=P:problem:kreska pseudotaktowa	!LO:TX:t=P:problem:kreska pseudotaktowa	!LO:TX:t=P:problem:kreska pseudotaktowa	!	!	!
.	.	8EE/	8e/J	8ee\J	8gg\	.	.	.
=7-	=7-	=7-	=7-	=7-	=7-	=7-	=7-	=7-
4.AA/	x #	8AA/L	8e\L	4.cc#X\	8aa\L	1r	1r	2r
.	.	16AA/L	16e\L	.	16aa\L	.	.	.
.	.	16AA/JJ	16e\JJ	.	16aa\JJ	.	.	.
.	.	8AA/L	8e\L	.	8aa\L	.	.	.
8AA/	x #	8AA/J	8a\J	8cc#\	8aa\J	.	.	.
8D/L	x 6	8D/L	8a\L	8dd\L	8ff#X\L	.	.	2r
8BB/	.	8BB/	8g\	8gg\	8bb\	.	.	.
8C/	.	8C/	8g\	8ee\	8gg\	.	.	.
!LO:TX:t=P:problem:kreska psudotaktowa	!	!LO:SIC:v:t=custos E	!LO:SIC:v:t=custos e	!LO:SIC:v:t=custos aa	!LO:TX:t=P:problem:kreska pseudotaktowa	!	!	!
8AA/J	.	8AA/J	8a\J	8aa\J	8ccc\J	.	.	.
!	!	!LO:LB:g=original	!LO:LB:g=original	!LO:LB:g=original	!LO:LB:g=original	!	!	!
=8-	=8-	=8-	=8-	=8-	=8-	=8-	=8-	=8-
2E\	x 4#r	4.E\	8r	4.aa\	4.bb\	8r	8r	2r
.	.	.	8e\	.	.	16EE/LL	16ee\LL	.
.	.	.	.	.	.	16EE/JJ	16ee\JJ	.
.	.	.	4e\	.	.	8EE/L	8ee\L	.
.	.	8E\	.	8gg#X\	8bb\	8EE/J	8ee\J	.
!LO:SIC:v:t=custos D	!	!LO:TX:t=P:problem:kreska pseudotaktowa	!LO:TX:t=P:problem:kreska pseudotaktowa	!	!	!	!LO:TX:t=P:problem:♯above	!
2AA/	x #	2AA/	2e\	4aa\	4aa\	8AA/L	4.cc#X\	8r
.	.	.	.	.	.	16AA/L	.	16aa\LL
.	.	.	.	.	.	16AA/JJ	.	16aa\JJ
!	!	!	!	!LO:TX:t=P:problem:kreska pseudotaktowa	!LO:TX:t=P:problem:kreska pseudotaktowa	!	!	!
.	.	.	.	4r	4r	8AA/L	.	8aa\L
!	!	!	!	!	!	!LO:SIC:v:t=custos D	!LO:SIC:v:t=custos dd	!LO:SIC:v:t=custos ff
.	.	.	.	.	.	8AA/J	8cc#\	8aa\J
!LO:LB:g=original	!	!	!	!	!	!LO:LB:g=original	!LO:LB:g=original	!LO:LB:g=original
=9-	=9-	=9-	=9-	=9-	=9-	=9-	=9-	=9-
2D/	x #	8r	8r	8r	8r	4.D/	4.ddny\	4.ff#X\
.	.	16DD/LL	16d\LL	16f#X/LL	16aa\LL	.	.	.
.	.	16DD/JJ	16d\JJ	16f#/JJ	16aa\JJ	.	.	.
.	.	8DD/L	8d\L	8f#/L	8aa\L	.	.	.
.	.	8DD/J	8d\J	8a/J	8aa\J	8D/	8dd\	8ff#\
!	!	!	!	!	!	!LO:TX:t=P:problem:mixed beam	!	!
2GG/	.	4.GG/	4.B/	8b/L	4.gg\	8GG/L	4.dd\	8gg\L
.	.	.	.	16b/L	.	16G\L	.	16gg\L
.	.	.	.	16b/JJ	.	16G\JJ	.	16gg\JJ
.	.	.	.	8b/L	.	8G\L	.	8gg\L
!	!	!LO:TX:t=P:problem:kreska pseudotaktowa	!LO:TX:t=P:problem:kreska pseudotaktowa	!LO:TX:t=P:problem:kreska pseudotaktowa	!LO:TX:t=P:problem:kreska pseudotaktowa	!LO:TX:t=P:problem:kreska pseudotaktowa	!LO:TX:t=P:problem:kreska pseudotaktowa	!LO:TX:t=P:problem:kreska pseudotaktowa
.	.	8GG/	8d\	8b/J	8gg\	8G\J	8dd\	8gg\J
=10-	=10-	=10-	=10-	=10-	=10-	=10-	=10-	=10-
4C/	.	4C/	4e\	4cc\	4gg\	4C/	4ccny\	4ee\
8r	.	8r	8r	8r	8r	8r	8r	8r
8EE/	x 6	8EE/	8c/	8cc\	8ee\	8EE/	8g/	8gg\
4FF/	x 6	4FF/	4c\	4.cc\	4.dd\	4FFny/	4a/	4ffny\
!LO:TX:t=P:problem:kreska pseudotaktowa	!	!	!LO:TX:t=P:problem:mixed beam	!	!	!	!	!LO:TX:t=P:problem:kreska pseudotaktowa
4GG/	x 4:3	4GG/	8G/L	.	.	4GG/	4g/	4dd\
!	!	!	!	!LO:TX:t=P:problem:kreska pseudotaktowa	!LO:TX:t=P:problem:kreska pseudotaktowa	!	!	!
.	.	.	8g\J	8b/	8dd\	.	.	.
=11-	=11-	=11-	=11-	=11-	=11-	=11-	=11-	=11-
2C/	.	4C/	4e\	4cc\	8cc\L	4C/	4g/	4ee\
.	.	.	.	.	8gg\	.	.	.
.	.	4r	4r	4r	8aa\	4r	4r	4r
.	.	.	.	.	8ffny\J	.	.	.
!	!	!	!LO:TX:t=P:problem:kreska pseudotaktowa	!	!	!	!	!
8r	.	2r	2r	8r	4gg\	2r	2r	2r
*clefC1	*	*	*	*	*	*	*	*
8cc\L	.	.	.	8cc\L	.	.	.	.
8dd\	.	.	.	8dd\	8ff\L	.	.	.
!LO:TX:t=P:problem:kreska pseudotaktowa	!	!	!	!LO:TX:t=P:problem:kreska pseudotaktowa	!LO:TX:t=P:problem:kreska pseudotaktowa	!	!	!
8b\J	x 6	.	.	8b\J	8gg\J	.	.	.
=12-	=12-	=12-	=12-	=12-	=12-	=12-	=12-	=12-
!	!	!	!	!	!	!LO:TX:a:t=2	!LO:TX:a:t=2.	!LO:TX:a:t=2
8cc\L	.	2r	2r	8cc\L	8.ee\L	1r	1r	1r
8g\	.	.	.	8g\	.	.	.	.
.	.	.	.	.	16dd\K	.	.	.
8a\	.	.	.	8a\	8cc\	.	.	.
!LO:TX:t=P:problem:♯above	!	!	!	!LO:TX:t=P:problem:♯above	!	!	!	!
8f#X\J	6	.	.	8f#X\J	8dd\J	.	.	.
8g\L	.	8r	8r	8g/	4b/	.	.	.
*clefF4	*	*	*	*	*	*	*	*
8G\	.	8G\L	8B/L	4d/	.	.	.	.
!	!	!	!	!	!LO:TX:t=P:problem:kreska pseudotaktowa	!	!	!
8A\	.	8A\	8c/	.	4r	.	.	.
!LO:TX:t=P:problem:kreska pseudotaktowa	!	!LO:TX:t=P:problem:♯above	!	!	!	!	!	!
!LO:TX:t=P:problem:♯above	!	!LO:TX:t=P:problem:kreska pseudotaktowa	!LO:TX:t=P:problem:kreska pseudotaktowa	!LO:TX:t=P:problem:kreska pseudotaktowa	!	!	!	!
8F#X\J	6	8F#X\J	8A/J	8d/	.	.	.	.
=13-	=13-	=13-	=13-	=13-	=13-	=13-	=13-	=13-
!LO:TX:t=P:problem:mixed beam	!	!LO:TX:t=P:problem:mixed beam	!LO:TX:t=P:problem:mixed beam	!	!	!	!	!
8G\L	6	8G\L	8B\L	4d/	8r	1r	1r	1r
8BB/	6	8BB/	8g\	.	8dd\L	.	.	.
8C/	6 5	8C/	8g\	8e/L	8.a\	.	.	.
!	!	!	!LO:TX:t=P:problem:♯above	!	!	!	!	!
8D/J	#	8D/J	8f#X\J	8d/J	.	.	.	.
.	.	.	.	.	16a\Jk	.	.	.
!LO:TX:t=P:problem:mixed beam	!	!LO:TX:t=P:problem:mixed beam	!	!LO:TX:t=P:problem:mixed beam	!	!	!	!
8G\L	.	8G\L	4g\	8d/L	4b/	.	.	.
8GG/	.	8GG/	.	8b\	.	.	.	.
!	!	!	!LO:TX:t=P:problem:kreska pseudotaktowa	!	!	!	!	!
8AA/	6	8AA/	4f#\	8cc\	4r	.	.	.
!LO:TX:t=P:problem:kreska pseudotaktowa	!	!LO:TX:t=P:problem:kreska pseudotaktowa	!	!LO:TX:t=P:problem:kreska pseudotaktowa	!	!	!	!
8BB/J	.	8BB/J	.	8dd\J	.	.	.	.
=14-	=14-	=14-	=14-	=14-	=14-	=14-	=14-	=14-
8C/L	.	8C/L	4e\	4ee\	8r	2r	2r	2r
8EE/	.	8EE/	.	.	8gg\L	.	.	.
8FF/	6	8FF/	8c\L	4r	8aa\	.	.	.
8DD/J	5 3	8DD/J	8d\J	.	8bb\J	.	.	.
!LO:TX:t=P:problem:kreska pseudotaktowa	!	!LO:TX:t=P:problem:kreska pseudotaktowa	!	!	!LO:TX:t=P:problem:kreska pseudotaktowa	!	!	!
[2CC/	6 4	[2CC/	4e\	2cc\	2ccc\	2C/	8r	8r
.	.	.	.	.	.	.	8ee\L	8gg\L
!	!	!	!LO:SIC:v:t=custos c	!	!	!	!	!
.	.	.	4r	.	.	.	8ff\	8aa\
!	!	!	!	!	!	!	!LO:TX:t=P:problem:kreska pseudotaktowa	!LO:TX:t=P:problem:kreska pseudotaktowa
.	.	.	.	.	.	.	8dd\J	8ff\J
!	!	!	!LO:LB:g=original	!LO:LB:g=original	!LO:LB:g=original	!	!	!
=15-	=15-	=15-	=15-	=15-	=15-	=15-	=15-	=15-
4CC]	3	4CC]	8r	8g\L	4ccc\	4C/	8ee\L	8gg\L
.	.	.	8c/L	8cc\	.	.	8cc\	8ee\
8FF/L	6 5	8FF/L	8c/	8.dd\	8aa\L	8FF/L	8.cc\	8ff\
!	!	!LO:SIC:v:t=custos AA	!	!	!	!	!	!
8GG/J	x 4#	8GG/J	8G/J	.	8gg\J	8GG/J	.	8dd\J
.	.	.	.	16dd\Jk	.	.	16b\Jk	.
!LO:LB:g=original	!	!LO:LB:g=original	!	!LO:TX:b:t=Adagio	!	!	!	!
4C/	.	4AA/	4E/	4cc\	4gg\	4C/	4cc\	4ee\
!LO:TX:t=P:problem:kreska pseudotaktowa	!	!LO:TX:t=P:problem:kreska pseudotaktowa	!LO:TX:t=P:problem:kreska pseudotaktowa	!LO:TX:t=P:problem:kreska pseudotaktowa	!LO:TX:t=P:problem:kreska pseudotaktowa	!LO:TX:a:t=adagio	!LO:TX:b:t=adagio	!LO:TX:t=P:problem:kreska pseudotaktowa
!	!	!	!	!	!	!	!LO:TX:t=P:problem:kreska pseudotaktowa	!
4EE/	6	4EE/	4c/	4cc\	4ee\	4EE/	4cc\	4gg\
=16-	=16-	=16-	=16-	=16-	=16-	=16-	=16-	=16-
!LO:TX:b:t=adagio	!	!LO:TX:a:t=adagio	!	!	!LO:TX:b:t=adagio	!	!	!LO:TX:b:t=adagio
4FF/	.	4FF/	2F/	2cc\	4a/	4FF/	2cc\	2aa\
4GG/	.	4GG/	.	.	4b/	4GG/	.	.
!	!	!	!LO:TX:b:t=Adagio	!	!	!	!	!
2AA/	6\	2AA/	4r	2a/	2cc\	2AA/	1cc\	2ff#X\
!	!	!	!LO:TX:t=P:problem:kreska pseudotaktowa	!	!	!	!	!
.	.	.	4c/	.	.	.	.	.
=17-	=17-	=17-	=17-	=17-	=17-	=17-	=17-	=17-
1GG	5 4:3	1GG	2G/	4r	2.dd\	1GG	.	1gg
.	.	.	.	4d/	.	.	.	.
.	.	.	2G/	4.g/	.	.	2b/	.
.	.	.	.	.	4dd\	.	.	.
.	.	.	.	8fny/	.	.	.	.
=18-	=18-	=18-	=18-	=18-	=18-	=18-	=18-	=18-
!LO:TX:t=P:problem:kreska pseudotaktowa	!	!LO:TX:t=P:problem:kreska pseudotaktowa	!	!LO:TX:t=P:problem:kreska pseudotaktowa	!	!LO:TX:t=P:problem:kreska pseudotaktowa	!	!
1C;	.	1C;	1G;	1e;	1ee;	1C;	1cc;	1gg;<
=19-	=19-	=19-	=19-	=19-	=19-	=19-	=19-	=19-
*M3/2	*	*M3/2	*M3/2	*M3/2	*M3/2	*M3/2	*M3/2	*M3/2
!LO:TX:b:t=.2.	!	!LO:TX:b:t=.2.	!LO:TX:b:t=.2.	!LO:TX:b:t=.2.	!LO:TX:b:t=.2.	!LO:TX:b:t=.2.	!LO:TX:a:t=.2.	!LO:TX:b:t=.2.
!LO:TX:a:t=.2.	!	!LO:TX:a:t=.2.	!LO:TX:a:t=.2.	!LO:TX:a:t=.2.	!LO:TX:a:t=.2.	!LO:TX:a:t=.2.	!LO:TX:b:t=.2.	!LO:TX:a:t=.2.
2C/	.	2C/	2e\	2g/	2cc\	2C/	2ee\	2gg\
!	!	!	!	!	!	!LO:TX:b:t=adagio	!	!
2.BB/	6	2.BB/	2.g\	2.g/	2.dd\	2.BB/	2.dd\	2.gg\
!	!	!	!	!	!	!	!	!LO:SIC:v:t=custos gg
4BB/	6	4BB/	4g\	4g/	4dd\	4BB/	4dd\	4gg\
!	!	!	!	!	!	!	!LO:LB:g=original	!
=20-	=20-	=20-	=20-	=20-	=20-	=20-	=20-	=20-
!LO:TX:t=P:problem:kreska pseudotaktowa	!	!LO:TX:t=P:problem:brak taktu	!LO:TX:t=P:problem:kreska pseudotaktowa	!LO:TX:t=P:problem:kreska pseudotaktowa	!LO:TX:t=P:problem:kreska pseudotaktowa	!	!	!
1.C	.	1.ryy	1.e	1.g	1.cc	1.C	1.ee	1.gg
=21-	=21-	=21-	=21-	=21-	=21-	=21-	=21-	=21-
!	!	!	!	!	!	!LO:TX:a:t=3.	!LO:TX:b:t=3	!
2C/	.	2C/	2c/	2e/	2g/	1.r	1.r	1.r
2AA/	-	2AA/	2c/	2a/	2cc\	.	.	.
!	!	!LO:TX:t=P:problem:kreska pseudotaktowa	!	!	!	!	!	!
2D/	#	2D/	2d\	2f#X/	2a/	.	.	.
=22-	=22-	=22-	=22-	=22-	=22-	=22-	=22-	=22-
2.GG/	.	2.GG/	1d	1g	2.b/	1.r	1.r	1.r
4AA/	.	4AA/	.	.	4cc\	.	.	.
!LO:TX:t=P:problem:kreska pseudotaktowa	!	!LO:TX:t=P:problem:kreska pseudotaktowa	!LO:TX:t=P:problem:kreska pseudotaktowa	!LO:TX:t=P:problem:kreska pseudotaktowa	!LO:TX:t=P:problem:kreska pseudotaktowa	!	!	!
2BB/	6	2BB/	2d\	2g/	2dd\	.	.	.
=23-	=23-	=23-	=23-	=23-	=23-	=23-	=23-	=23-
2C/	6 5	2C/	2e\	2g/	2a/	1.r	1.r	1.r
1D	5 4#r	2D/	2.d\	2.g/	2.a/	.	.	.
.	.	2DD/	.	.	.	.	.	.
!	!	!	!	!LO:TX:t=P:problem:♯below	!	!	!	!
.	.	.	4d\	4f#X/	4a/	.	.	.
!	!	!	!	!	!	!LO:LB:g=original	!	!
=24-	=24-	=24-	=24-	=24-	=24-	=24-	=24-	=24-
*	*	*	*	*	*	*2\right	*	*
2G\	.	2GG/	2d\	2g/	2b/	2G\	2b/	2dd\
2E\	.	2r	2r	2r	2r	2E\	2ee\	2gg\
!LO:TX:t=P:problem:kreska pseudotaktowa	!	!	!	!	!	!LO:TX:t=P:problem:kreska pseudotaktowa	!LO:SIC:v:t=custos dd	!
2A\	#	2r	2r	2r	2r	2A\	2cc#X\	2ee\
=25-	=25-	=25-	=25-	=25-	=25-	=25-	=25-	=25-
!	!	!	!LO:SIC:v:t=custos d	!	!	!	!	!
!	!	!	!LO:TX:a:t=2	!	!LO:TX:a:t=2	!	!	!
2.D/	.	1.r	1.r	1.r	1.r	2.D/	1dd	2.ffny\
4E\	.	.	.	.	.	4E\	.	4gg\
!	!	!	!	!	!	!LO:TX:t=P:problem:kreska pseudotaktowa	!	!LO:TX:t=P:problem:kreska pseudotaktowa
2Fny\	6	.	.	.	.	2F\	2dd\	2aa\
!LO:LB:g=original	!	!	!	!	!	!	!	!
=26-	=26-	=26-	=26-	=26-	=26-	=26-	=26-	=26-
2G\	6 5	1.r	1.r	1.r	1.r	2G\	2dd\	2ee\
2A\	4#r	.	.	.	.	2A\	2.dd\	2.ee\
!LO:TX:t=P:problem:kreska pseudotaktowa	!	!	!	!	!	!	!	!
2AA/	.	.	.	.	.	2AA/	.	.
!	!	!	!	!	!	!	!LO:TX:t=P:problem:♯above	!
!	!	!	!	!	!	!	!LO:TX:t=P:problem:kreska pseudotaktowa	!
.	.	.	.	.	.	.	4cc#X\	4ee\
!	!	!	!LO:LB:g=original	!	!	!	!	!
=27-	=27-	=27-	=27-	=27-	=27-	=27-	=27-	=27-
2D/	#	2D/	2d\	2f#X/	2a/	2D/	2dd\	2ff#X\
2BB/	.	2BB/	2d\	2b/	2dd\	2r	2r	2r
*	*	*2\right	*	*	*	*	*	*
!	!	!	!	!LO:TX:t=P:problem:♯below	!	!	!	!
2E\	#	2E\	2e\	2g#X/	2b/	2r	2r	2r
!	!	!	!	!LO:LB:g=original	!LO:LB:g=original	!	!	!
=28-	=28-	=28-	=28-	=28-	=28-	=28-	=28-	=28-
!	!	!	!	!	!	!LO:TX:a:t=2.	!LO:TX:a:t=2	!LO:TX:a:t=2
2.AA/	-	2.AA/	1e	1a	2.cc\	1.r	1.r	1.r
4BB/	.	4BB/	.	.	4dd\	.	.	.
!LO:TX:t=P:problem:kreska pseudotaktowa	!	!	!LO:TX:t=P:problem:kreska pseudotaktowa	!LO:TX:t=P:problem:kreska pseudotaktowa	!LO:TX:t=P:problem:kreska pseudotaktowa	!	!	!
2C/	6	2C/	2e\	2a/	2ee\	.	.	.
!	!	!LO:LB:g=original	!	!	!	!	!	!
=29-	=29-	=29-	=29-	=29-	=29-	=29-	=29-	=29-
2D/	6 5	2D/	2fny\	2a/	2b/	1.r	1.r	1.r
1E	5 4#r	2E\	2.e\	2.a/	2.b/	.	.	.
.	.	2EE/	.	.	.	.	.	.
!	!	!	!	!LO:TX:t=P:problem:kreska pseudotaktowa	!	!	!	!
!	!	!	!	!LO:TX:t=P:problem:♯below	!	!	!	!
.	.	.	4e\	4g#X/	4b/	.	.	.
=30-	=30-	=30-	=30-	=30-	=30-	=30-	=30-	=30-
2AA/	-	2AA/	2e\	2a/	2cc\	2AA/	2a/	2cc\
2FF/	6	2r	2r	2r	2r	2FF/	2dd\	2ffny\
!LO:TX:t=P:problem:kreska pseudotaktowa	!	!	!	!	!	!	!	!
2GG/	.	2r	2r	2r	2r	2GG/	2b/	2dd\
=31-	=31-	=31-	=31-	=31-	=31-	=31-	=31-	=31-
!	!	!LO:TX:a:t=2	!LO:TX:a:t=2	!	!LO:TX:a:t=2	!	!	!
2.C/	.	1.r	1.r	1.r	1.r	2.CC/	1ccny	2.ee\
4D/	.	.	.	.	.	4DD/	.	4ff\
!	!	!	!	!	!	!LO:TX:t=P:problem:kreska pseudotaktowa	!LO:TX:t=P:problem:kreska pseudotaktowa	!LO:TX:t=P:problem:kreska pseudotaktowa
2E\	6	.	.	.	.	2EE/	2cc\	2gg\
=32-	=32-	=32-	=32-	=32-	=32-	=32-	=32-	=32-
*	*	*	*	*	*	*col	*	*
2F\	6 5	1.r	1.r	1.r	1.r	2FF/	2cc\	2dd\
1G	4:3	.	.	.	.	1GG	2.cc\	2.dd\
!	!	!	!	!	!	!	!LO:TX:t=P:problem:kreska pseudotaktowa	!
.	.	.	.	.	.	.	4b/	4dd\
*	*	*	*	*	*	*Xcol	*	*
=33-	=33-	=33-	=33-	=33-	=33-	=33-	=33-	=33-
!LO:TX:t=P:problem:kreska pseudotaktowa	!	!	!	!	!	!	!	!
*	*	*col	*	*	*	*	*	*
!	!	!	!LO:TX:b:t=Allegro	!	!	!	!	!
*	*	*	*	*col	*col	*col	*	*
1.C	.	2r	2r	2r	2r	2CC/	2cc\	2ee\
!	!	!LO:TX:a:t=allegro.	!	!	!	!	!	!
!	!	!LO:TX:t=P:problem:kreska pseudotaktowa	!	!	!LO:TX:t=P:problem:kreska pseudotaktowa	!LO:TX:t=P:problem:kreska pseudotaktowa	!	!
.	.	1C	1c	1e	1g	1C	2.cc\	2r
.	.	.	.	.	.	.	.	2r
!	!	!	!	!	!	!	!LO:TX:t=P:problem:kreska pseudotaktowa	!
.	.	.	.	.	.	.	4g/	.
!	!	!	!	!	!	!	!LO:TX:b:t=allegro	!LO:TX:t=P:problem:kreska pseudotaktowa
*	*	*Xcol	*	*Xcol	*Xcol	*Xcol	*	*
=34-	=34-	=34-	=34-	=34-	=34-	=34-	=34-	=34-
!	!	!	!	!LO:TX:b:t=Allegro	!LO:TX:b:t=allegro	!	!	!LO:TX:b:t=Allegro
2FF/	.	2FF/	2c/	2fny/	2f/	2FF/	2a/	2r
!LO:TX:b:t=allegro	!	!	!	!	!	!LO:TX:b:t=allegro	!	!
2.F\	.	2.Fny\	2.c/	2.f/	2.cc\	2.F\	2.a/	2.aa\
!	!	!	!LO:TX:t=P:problem:kreska pseudotaktowa	!LO:TX:t=P:problem:kreska pseudotaktowa	!	!	!LO:TX:t=P:problem:kreska pseudotaktowa	!
4C/	6	4C/	4c/	4a/	4cc\	4C/	4a/	4ee\
=35-	=35-	=35-	=35-	=35-	=35-	=35-	=35-	=35-
2D/	.	2D/	2F/	2f/	2a/	2D/	2a/	2ff\
2.AA/	.	2.AA/	2.f\	2r	2.ff\	2.AA/	2.a/	2.cc\
.	.	.	.	2r	.	.	.	.
!	!	!	!	!	!	!LO:SIC:v:t=custos FF	!	!
!	!	!LO:TX:t=P:problem:kreska pseudotaktowa	!	!	!LO:TX:t=P:problem:kreska pseudotaktowa	!LO:TX:t=P:problem:♭above	!LO:TX:t=P:problem:kreska pseudotaktowa	!
4BB-X/	6	4BB-X/	4f\	.	4ff\	4BB-X/	4f/	4dd\
!LO:LB:g=original	!	!	!	!	!	!LO:LB:g=original	!	!LO:LB:g=original
=36-	=36-	=36-	=36-	=36-	=36-	=36-	=36-	=36-
*	*	*	*	*col	*col	*col	*	*col
1.FF	6	1.FF	1.f	2cc\	2aa\	2FF/	2f/	2a/
.	.	.	.	1a	1aa	1FF	1f	1dd
*	*	*	*	*Xcol	*Xcol	*Xcol	*	*Xcol
=37-	=37-	=37-	=37-	=37-	=37-	=37-	=37-	=37-
2GG/	6 -	2GG/	2d\	2gny/	2bb-X\	2GG/	2e/	2dd\
!LO:TX:t=P:problem:kreska pseudotaktowa	!	!	!	!	!	!	!	!
1AA	4#r	2.AA/	2.A/	2.e/	2.aa\	2.AA/	2.e/	2.dd\
!	!	!	!	!	!	!	!	!LO:TX:t=P:problem:♯above
!	!	!LO:TX:t=P:problem:kreska pseudotaktowa	!	!LO:TX:t=P:problem:kreska pseudotaktowa	!LO:TX:t=P:problem:kreska pseudotaktowa	!LO:TX:t=P:problem:kreska pseudotaktowa	!LO:SIC:v:t=custos f#	!LO:TX:t=P:problem:kreska pseudotaktowa
.	.	4AA/	4A/	4a/	4aa\	4AA/	4e/	4cc#X\
!	!	!	!	!	!	!	!LO:LB:g=original	!LO:LB:g=original
=38-	=38-	=38-	=38-	=38-	=38-	=38-	=38-	=38-
2D/	#	2D/	2F#X/	2a/	2aa\	2D/	2f#X/	2dd\
2.BBny/	6	2.BBny/	2.d\	2.g/	2.dd\	2.BBny/	2.b/	2.gg\
!	!	!	!LO:TX:t=P:problem:kreska pseudotaktowa	!	!	!	!	!LO:TX:t=P:problem:♯above
4D/	#	4D/	4d\	4a/	4dd\	4D/	4a/	4ff#X\
=39-	=39-	=39-	=39-	=39-	=39-	=39-	=39-	=39-
!LO:TX:t=P:problem:kreska pseudotaktowa	!	!	!	!	!	!	!	!
1.GG	.	2G\	2B/	2g/	2dd\	2GG/	2b/	2gg\
.	.	2.GG/	2.d\	2.b/	2.gg\	2r	2r	2r
.	.	.	.	.	.	2r	2r	2r
!	!	!LO:TX:t=P:problem:kreska pseudotaktowa	!	!LO:TX:t=P:problem:kreska pseudotaktowa	!LO:TX:t=P:problem:kreska pseudotaktowa	!	!	!
.	.	4GG/	4d\	4b/	4dd\	.	.	.
!	!	!	!LO:LB:g=original	!	!	!	!	!
=40-	=40-	=40-	=40-	=40-	=40-	=40-	=40-	=40-
!	!	!	!	!	!	!LO:TX:a:t=4	!LO:TX:a:t=3.	!LO:TX:a:t=4.
2C/	.	2C/	1c	2cc\	2ee\	1.r	1.r	1.r
2.c\	.	2.c\	.	2.ee\	2.gg\	.	.	.
!	!	!	!LO:TX:t=P:problem:kreska pseudotaktowa	!	!	!	!	!
.	.	.	2r	.	.	.	.	.
!	!	!	!	!	!LO:SIC:v:t=custos ee	!	!	!
4G\	.	4G\	.	4b/	4gg\	.	.	.
!	!	!	!	!	!LO:LB:g=original	!	!	!
=41-	=41-	=41-	=41-	=41-	=41-	=41-	=41-	=41-
2A\	.	2A\	2r	2cc\	2ee\	1.r	1.r	1.r
2.E\	6	2.E\	2.c/	2.g/	2.ee\	.	.	.
!	!	!LO:SIC:v:t=custos C	!	!	!	!	!	!
4F\	.	4F\	4c/	4a/	4cc\	.	.	.
!	!	!LO:LB:g=original	!	!LO:LB:g=original	!	!	!	!
=42-	=42-	=42-	=42-	=42-	=42-	=42-	=42-	=42-
*	*	*	*col	*col	*	*	*	*
!	!	!	!	!	!LO:TX:t=P:problem:kreska pseudotaktowa	!	!	!
1.C	6	1.C	2c/	2e/	1.cc	1.r	1.r	1.r
!	!	!	!LO:TX:t=P:problem:kreska pseudotaktowa	!	!	!	!	!
.	.	.	1e	1a	.	.	.	.
*	*	*	*Xcol	*Xcol	*	*	*	*
=43-	=43-	=43-	=43-	=43-	=43-	=43-	=43-	=43-
2D/	6 5	2D/	2f\	2a/	2b/	1.r	2r	1.r
1E	5 4#r	2.E\	2.e\	2.a/	2.b/	.	2.ee\	.
!	!	!	!	!LO:TX:t=P:problem:kreska pseudotaktowa	!	!	!	!
!	!	!LO:TX:t=P:problem:kreska pseudotaktowa	!	!LO:TX:t=P:problem:♯below	!	!	!	!
.	.	4E\	4e\	4g#X/	4b/	.	4b/	.
=44-	=44-	=44-	=44-	=44-	=44-	=44-	=44-	=44-
!LO:TX:t=P:problem:kreska pseudotaktowa	!	!	!	!	!	!	!	!
1.AA	#	2AA/	2e\	2a/	2a/	2r	1.cc#X	2r
.	.	2.AA/	2.A/	2.a/	2.ee\	2.AA/	.	2.aa\
!	!	!	!	!	!LO:TX:t=P:problem:kreska pseudotaktowa	!	!	!
.	.	4AA/	4A/	4a/	4ee\	4AA/	.	4ee\
=45-	=45-	=45-	=45-	=45-	=45-	=45-	=45-	=45-
!	!	!	!	!	!	!	!	!LO:TX:t=P:problem:kreska pseudotaktowa
1.D	#	1.D	1A	1a	2dd\	1.DD	2r	1.ff#X
.	.	.	.	.	1dd	.	2.dd\	.
!	!	!	!LO:TX:t=P:problem:kreska pseudotaktowa	!LO:TX:t=P:problem:kreska pseudotaktowa	!	!	!	!
.	.	.	2r	2r	.	.	.	.
.	.	.	.	.	.	.	4a/	.
!	!	!	!	!	!	!	!	!LO:LB:g=original
=46-	=46-	=46-	=46-	=46-	=46-	=46-	=46-	=46-
!	!	!LO:TX:t=P:problem:kreska pseudotaktowa	!	!	!	!LO:TX:t=P:problem:kreska pseudotaktowa	!	!
1.GG	.	1.GG	2r	2r	1.dd	1.GG	1.b	2r
.	.	.	2.B/	2.gny/	.	.	.	2.gg\
!	!	!	!LO:TX:t=P:problem:kreska pseudotaktowa	!LO:TX:t=P:problem:kreska pseudotaktowa	!	!	!	!
.	.	.	4G/	4g/	.	.	.	4dd\
=47-	=47-	=47-	=47-	=47-	=47-	=47-	=47-	=47-
!	!	!	!	!	!	!	!	!LO:TX:t=P:problem:kreska pseudotaktowa
2C/	.	2C/	2G/	2g/	2r	2CC/	2ccny\	1.ee
2.C/	.	2.C/	2r	2r	2.g/	2.C/	2.ee\	.
!	!	!	!	!LO:TX:t=P:problem:kreska pseudotaktowa	!	!	!	!
.	.	.	2r	2r	.	.	.	.
!	!	!	!	!	!	!	!LO:TX:t=P:problem:kreska pseudotaktowa	!
4GG/	.	4GG/	.	.	4g/	4GG/	4b/	.
=48-	=48-	=48-	=48-	=48-	=48-	=48-	=48-	=48-
*	*	*	*	*col	*col	*	*	*
2AA/	.	2AA/	2r	2r	2e/	2AA/	2cc\	2ee\
2.GG/	6	2.GG/	2e\	1ggny	1e	2.GG/	2.b/	1ee
!	!	!	!LO:TX:t=P:problem:kreska pseudotaktowa	!	!	!	!	!
.	.	.	2g\	.	.	.	.	.
4FF/	.	4FF/	.	.	.	4FF/	4a/	.
*	*	*	*	*Xcol	*Xcol	*	*	*
!LO:LB:g=original	!	!	!	!	!	!	!	!
=49-	=49-	=49-	=49-	=49-	=49-	=49-	=49-	=49-
!	!	!	!	!	!LO:TX:t=P:problem:kreska pseudotaktowa	!	!	!
1.EE	6	1.EE	[1.c/	1.gg	1.g	1.EE	2g/	1.ee
!	!	!	!	!	!	!	!LO:TX:t=P:problem:kreska pseudotaktowa	!
.	.	.	.	.	.	.	1cc	.
=50-	=50-	=50-	=50-	=50-	=50-	=50-	=50-	=50-
2FF/	6 5	2FF/	2c]	2ffny\	2a/	2FF/	2cc\	2dd\
1GG	5 4:3	2.GG/	2.G/	2.dd\	2.g/	2.GG/	2.cc\	2.dd\
.	.	4GG/	4g\	4dd\	4g/	4GG/	4b/	4dd\
=51-	=51-	=51-	=51-	=51-	=51-	=51-	=51-	=51-
!	!	!	!	!	!LO:TX:t=P:problem:kreska pseudotaktowa	!	!LO:SIC:v:t=custos ee	!
1.C	.	1.C;	1.e;	1.cc;	1.g	1.CC	1.cc;	1.ee
!	!	!	!LO:LB:g=original	!	!	!	!LO:LB:g=original	!
=52	=52	=52	=52	=52	=52	=52	=52	=52
*M2/2	*	*M2/2	*M2/2	*M2/2	*M2/2	*M2/2	*M2/2	*M2/2
*met(c|)	*	*met(c|)	*met(c|)	*met(c|)	*met(c|)	*met(c|)	*met(c|)	*met(c|)
!LO:TX:b:t=adagio	!	!LO:TX:b:t=Adagio	!LO:TX:b:t=adagio	!LO:TX:b:t=Adagio	!LO:TX:b:t=Adagio	!LO:TX:b:t=adagio	!LO:TX:b:t=adagio	!LO:TX:b:t=adagio
4r	.	4r	4r	4r	4r	4r	4r	4r
4C/	.	4C/	4e\	4cc\	4ccc\	4C/	4ee\	4gg\
2C/	.	4.C/	4.e\	4.cc\	4.ccc\	4.C/	4.ee\	4.gg\
!	!	!LO:TX:t=P:problem:kreska pseudotaktowa	!LO:TX:t=P:problem:kreska pseudotaktowa	!LO:TX:t=P:problem:kreska pseudotaktowa	!	!	!LO:TX:t=P:problem:kreska pseudotaktowa	!
.	.	8C/	8e\	8cc\	8ccc\	8C/	8ee\	8gg\
!	!	!	!	!	!LO:LB:g=original	!LO:LB:g=original	!	!LO:LB:g=original
=53-	=53-	=53-	=53-	=53-	=53-	=53-	=53-	=53-
4GG/	.	4GG/	4g\	4dd\	4bb\	4GG/	4dd\	4gg\
8r	.	8r	8r	8r	8r	8r	8r	8r
!	!	!	!	!LO:TX:t=P:problem:♯above	!	!	!	!
8FF#X/	6	8FF#X/	8a\	8ff#X\	8aa\	8FF#X/	8d/	8dd\
4GG/	.	4GG/	4g\	4dd\	4bb\	4GG/	4d/	4dd\
8r	.	8r	8r	8r	8r	8r	8r	8r
!LO:TX:t=P:problem:kreska pseudotaktowa	!	!	!	!	!	!	!	!
!LO:SIC:v:t=custos FF#	!	!	!LO:TX:t=P:problem:kreska pseudotaktowa	!LO:TX:t=P:problem:♯above	!LO:TX:t=P:problem:kreska pseudotaktowa	!LO:TX:t=P:problem:kreska pseudotaktowa	!LO:TX:t=P:problem:kreska pseudotaktowa	!LO:TX:t=P:problem:kreska pseudotaktowa
8EE#X/	6	8FF#X/	8d\	8ff#X\	8aa\	8FF#X/	8a/	8dd\
!	!	!LO:LB:g=original	!	!LO:LB:g=original	!	!	!	!
=54-	=54-	=54-	=54-	=54-	=54-	=54-	=54-	=54-
!LO:TX:t=P:problem:takty 38-44 dopisane na końcu partii	!	!	!	!	!	!	!	!
4.GG/	.	4GG/	4.B/	4.dd\	4.bb\	4.GG/	4g/	4.dd\
.	.	8r	.	.	.	.	8r	.
8GG#X/	.	8GG#X/	8e\	8b/	8bb\	8GG#X/	8b/	8ee\
4AA/	.	4AA/	4e\	4e/	4ccc\	4AA/	4a/	4ee\
!LO:TX:t=P:problem:kreska pseudotaktowa	!	!	!LO:TX:t=P:problem:kreska pseudotaktowa	!	!	!	!LO:TX:t=P:problem:kreska pseudotaktowa	!LO:TX:t=P:problem:kreska pseudotaktowa
4EEny/	#	4EE/	4e\	8g#X/L	4gg#X\	4EE/	4b/	4ee\
!	!	!	!	!LO:TX:t=P:problem:kreska pseudotaktowa	!	!	!	!
.	.	.	.	8e/J	.	.	.	.
=55-	=55-	=55-	=55-	=55-	=55-	=55-	=55-	=55-
2FFny/	.	4.FFny/	4.A/	4r	4.aa\	4.FFny/	4.a/	4.ee\
.	.	.	.	8a\L	.	.	.	.
!	!	!	!	!LO:TX:a:t=d	!	!	!	!
.	.	8FF/	8A/	8dd\J	8aa\	8FF/	8a/	8dd\
!	!	!LO:TX:t=P:problem:kreska pseudotaktowa	!LO:TX:t=P:problem:kreska pseudotaktowa	!	!LO:TX:t=P:problem:kreska pseudotaktowa	!LO:TX:t=P:problem:kreska pseudotaktowa	!LO:TX:t=P:problem:kreska pseudotaktowa	!LO:TX:t=P:problem:kreska pseudotaktowa
2EE/	#	2EE/	2e\	2b/	2gg#X\	2EE/	2b/	2ee\
=56-	=56-	=56-	=56-	=56-	=56-	=56-	=56-	=56-
4r	.	4r	4r	4r	4r	4r	4r	4r
4E\	#	4E\	4e\	4g#X/	4b/	4E\	4ee\	4gg#X\
!LO:TX:t=P:problem:kreska pseudotaktowa	!	!	!	!	!	!	!	!
2E\	#	4.E\	4.e\	4.g#/	4.b/	4.E\	4.ee\	4.gg#\
!	!	!LO:TX:t=P:problem:kreska pseudotaktowa	!LO:TX:t=P:problem:kreska pseudotaktowa	!LO:TX:t=P:problem:kreska pseudotaktowa	!LO:TX:t=P:problem:kreska pseudotaktowa	!	!LO:TX:t=P:problem:kreska pseudotaktowa	!LO:TX:t=P:problem:kreska pseudotaktowa
.	.	8E\	8e\	8b/	8b/	8E\	8ee\	8gg#\
=57-	=57-	=57-	=57-	=57-	=57-	=57-	=57-	=57-
4C#X/	6	4C#X/	4e\	4cc#X\	4a/	4C#X/	4ee\	4aa\
8r	.	8r	8r	8r	8r	8r	8r	8r
!LO:TX:t=P:problem:♯below	!	!	!	!LO:TX:t=P:problem:♯above	!	!LO:TX:t=P:problem:♯below	!	!
8C#X/	6	8C#X/	8A/	8cc#X\	8a/	8C#X/	8ee\	8aa\
4D/	#	4D/	4A/	4a/	4a/	4D/	4dd\	4ff#X\
8r	.	8r	8r	8r	8r	8r	8r	8r
!LO:TX:t=P:problem:kreska pseudotaktowa	!	!LO:TX:t=P:problem:kreska pseudotaktowa	!LO:TX:t=P:problem:kreska pseudotaktowa	!LO:TX:t=P:problem:kreska pseudotaktowa	!LO:TX:t=P:problem:kreska pseudotaktowa	!LO:TX:t=P:problem:kreska pseudotaktowa	!LO:TX:t=P:problem:kreska pseudotaktowa	!LO:TX:t=P:problem:kreska pseudotaktowa
8C#X/	6	8C#X/	8e\	8cc#X\	8aa\	8C#X/	8ee\	8aa\
=58-	=58-	=58-	=58-	=58-	=58-	=58-	=58-	=58-
4.D/	#	4.D/	4.f#X\	4.a/	4.aa\	4.D/	4.dd\	4.ff#X\
8BB/	6	8BB/	8d\	8gny/	8bb\	8BB/	8dd\	8ggny\
4Cny/	.	4Cny/	4c/	4e/	4ggny\	4Cny/	4ee\	4gg\
!LO:TX:t=P:problem:kreska pseudotaktowa	!	!LO:TX:t=P:problem:kreska pseudotaktowa	!LO:SIC:v:t=custos d	!LO:TX:t=P:problem:kreska pseudotaktowa	!LO:TX:t=P:problem:kreska pseudotaktowa	!LO:TX:t=P:problem:kreska pseudotaktowa	!	!LO:TX:t=P:problem:kreska pseudotaktowa
4GGny/	.	4GGny/	4d\	4g/	4bb\	4GGny/	4dd\	4gg\
!	!	!	!LO:LB:g=original	!	!	!	!LO:LB:g=original	!
=59-	=59-	=59-	=59-	=59-	=59-	=59-	=59-	=59-
2D/	4#r	4.D/	4.d\	4.a/	4.aa\	4.D/	4.dd\	4.gg\
!	!	!	!	!	!	!	!	!LO:TX:t=P:problem:♯above
.	.	8DD/	8d\	8a/	8aa\	8DD/	8dd\	8ff#X\
4GG/	.	4GG/	4B/	4g/	4bb\	4GG/	4dd\	4gg\
8r	.	8r	8r	8r	8r	8r	8r	8r
!LO:TX:t=P:problem:kreska pseudotaktowa	!	!	!	!	!LO:SIC:v:t=custos bb	!	!	!
!LO:TX:t=P:problem:♯below	!	!LO:TX:t=P:problem:♯below	!LO:TX:t=P:problem:kreska pseudotaktowa	!LO:TX:t=P:problem:kreska pseudotaktowa	!LO:TX:t=P:problem:kreska pseudotaktowa	!LO:SIC:v:t=custos GG	!LO:TX:t=P:problem:kreska pseudotaktowa	!
8FF#X/	.	8FF#X/	8d\	8dd\	8aa\	8FF#X/	8d/	8dd\
!	!	!	!	!	!LO:LB:g=original	!LO:LB:g=original	!	!LO:LB:g=original
=60-	=60-	=60-	=60-	=60-	=60-	=60-	=60-	=60-
4GG/	.	4GG/	4d\	4b/	4bb\	4GG/	4d/	4dd\
8r	.	8r	8r	8r	8r	8r	8r	8r
8FF#X/	6	8FF#X/	8d\	8dd\	8aa\	8FF#X/	8d/	8dd\
4GG/	.	4GG/	4d\	4dd\	4bb\	4GG/	4d/	4b/
8r	.	8r	8r	8r	8r	8r	8r	8r
!LO:SIC:v:t=custos FF	!	!LO:SIC:v:t=custos FF	!LO:TX:t=P:problem:kreska pseudotaktowa	!LO:SIC:v:t=custos cc	!LO:TX:t=P:problem:kreska pseudotaktowa	!LO:TX:t=P:problem:kreska pseudotaktowa	!LO:TX:t=P:problem:kreska pseudotaktowa	!LO:TX:t=P:problem:kreska pseudotaktowa
!LO:TX:t=P:problem:powrót do poprzedniej strony	!	!	!	!	!	!	!	!
8EE/	.	8EE/	8c/	8ee\	8ccc\	8EE/	8g/	8gg\
!LO:LB:g=original	!	!LO:LB:g=original	!	!LO:LB:g=original	!	!	!	!
=61-	=61-	=61-	=61-	=61-	=61-	=61-	=61-	=61-
4FFny/	.	4FFny/	4c/	4ccny\	4aa\	4FFny/	8a/L	4ffny\
.	.	.	.	.	.	.	8b/J	.
4CC/	.	4C/	4c/	4cc\	4gg\	4CC/	4cc\	4ee\
!LO:TX:t=P:problem:kreska pseudotaktowa	!	!	!	!	!	!	!	!
2GG/	5 4:3	2GG/	8r	4.dd\	4.gg\	2GG/	4.cc\	4.dd\
!	!	!	!LO:TX:t=P:problem:mixed beam	!	!	!	!	!
.	.	.	8G/L	.	.	.	.	.
.	.	.	8.g\	.	.	.	.	.
!	!	!	!	!	!LO:TX:t=P:problem:kreska pseudotaktowa	!	!LO:TX:t=P:problem:kreska pseudotaktowa	!
.	.	.	.	8dd\	8gg\	.	8b/	8dd\
!	!	!	!LO:TX:t=P:problem:kreska pseudotaktowa	!	!	!	!	!
.	.	.	16fny\Jk	.	.	.	.	.
=62-	=62-	=62-	=62-	=62-	=62-	=62-	=62-	=62-
!LO:TX:b:t=Allegro	!	!	!LO:TX:b:t=allegro	!	!	!	!	!
8C/	.	4C/	8e\L	4cc\	4gg\	4CC/	4cc\	4ee\
*clefC3	*	*	*	*	*	*	*	*
16g\LL	.	.	16g\L	.	.	.	.	.
16f\JJ	.	.	16f\JJ	.	.	.	.	.
8e\L	.	4r	8e\L	4r	4r	4r	4r	4r
8a\J	.	.	8a\J	.	.	.	.	.
!	!	!	!	!LO:TX:t=P:problem:kreska pseudotaktowa	!	!	!	!
8.g\L	.	2r	8.g\L	2r	2r	2r	2r	2r
16f\K	.	.	16f\Jk	.	.	.	.	.
8e\	.	.	16e\LL	.	.	.	.	.
.	.	.	16f\	.	.	.	.	.
!LO:TX:t=P:problem:kreska pseudotaktowa	!	!	!	!	!	!	!	!
8d\J	.	.	16d\	.	.	.	.	.
!	!	!	!LO:TX:t=P:problem:kreska pseudotaktowa	!	!	!	!	!
.	.	.	16e\JJ	.	.	.	.	.
=63-	=63-	=63-	=63-	=63-	=63-	=63-	=63-	=63-
!	!	!	!	!LO:TX:b:t=Allegro	!	!LO:TX:a:t=4	!LO:TX:a:t=4.	!LO:TX:a:t=5
4c/	.	1r	4c/	8r	1r	1r	1r	1r
.	.	.	.	16cc\LL	.	.	.	.
.	.	.	.	16b\JJ	.	.	.	.
4f\	6	.	8.f\L	8a\L	.	.	.	.
.	.	.	.	8dd\J	.	.	.	.
.	.	.	16f\Jk	.	.	.	.	.
4e\	6	.	8.e\L	8.cc\L	.	.	.	.
.	.	.	16e\Jk	16cc\Jk	.	.	.	.
8d\L	6	.	8d\L	16b\LL	.	.	.	.
.	.	.	.	16cc\	.	.	.	.
8c\J	6	.	8c\J	16a\	.	.	.	.
!	!	!	!	!LO:TX:t=P:problem:kreska pseudotaktowa	!	!	!	!
.	.	.	.	16b\JJ	.	.	.	.
!LO:LB:g=original	!	!	!	!	!	!	!	!
=64-	=64-	=64-	=64-	=64-	=64-	=64-	=64-	=64-
!	!	!LO:TX:b:t=Allegro	!	!	!	!	!	!
8B/L	.	2r	8B/L	8g/L	8r	1r	1r	1r
8G/	.	.	8G/	8b/J	16gg\LL	.	.	.
.	.	.	.	.	16ff\JJ	.	.	.
8c/	.	.	8c/	8.cc\L	8ee\L	.	.	.
8G/J	.	.	8F/J	.	8aa\J	.	.	.
.	.	.	.	16cc\Jk	.	.	.	.
*clefF4	*	*	*	*	*	*	*	*
4.G\	.	8r	16G/LL	4b/	8.gg\L	.	.	.
.	.	.	16A/	.	.	.	.	.
.	.	8G\L	16G/	.	.	.	.	.
!	!	!	!	!	!LO:TX:t=P:problem:kreska pseudotaktowa	!	!	!
.	.	.	16A/JJ	.	16ff\Jk	.	.	.
!	!	!	!LO:LB:g=original	!LO:TX:t=P:problem:kreska pseudotaktowa	!	!	!	!
.	.	8G\	8.B/L	4r	16ee\LL	.	.	.
.	.	.	.	.	16ff\	.	.	.
!LO:TX:t=P:problem:kreska pseudotaktowa	!	!LO:TX:t=P:problem:kreska pseudotaktowa	!	!	!	!	!	!
8G\	.	8G\J	.	.	16dd\	.	.	.
!	!	!	!LO:TX:t=P:problem:kreska pseudotaktowa	!	!LO:TX:t=P:problem:kreska pseudotaktowa	!	!	!
.	.	.	16B/Jk	.	16ee\JJ	.	.	.
=65-	=65-	=65-	=65-	=65-	=65-	=65-	=65-	=65-
8A\L	.	16A\LL	8c/	2r	4cc\	1r	1r	1r
.	.	16G\	.	.	.	.	.	.
8F\	.	16F\	4c/	.	.	.	.	.
.	.	16E\JJ	.	.	.	.	.	.
8D\	7	8D\L	.	.	8.dd\L	.	.	.
!LO:TX:t=P:problem:kreska pseudotaktowa	!	!	!	!	!	!	!	!
8G\J	.	8G\J	8B/	.	.	.	.	.
.	.	.	.	.	16dd\Jk	.	.	.
8.C/L	.	16C/LL	8c\L	8r	16ee\LL	.	.	.
.	.	16D/	.	.	16ff\	.	.	.
.	.	16C/	8a\	8cc\L	16ee\	.	.	.
16D/K	.	16D/JJ	.	.	16ff\JJ	.	.	.
8E/	6	8E\L	8.e\	8cc\	8gg\L	.	.	.
!LO:TX:t=P:problem:kreska pseudotaktowa	!	!LO:TX:t=P:problem:kreska pseudotaktowa	!	!LO:TX:t=P:problem:kreska pseudotaktowa	!LO:TX:t=P:problem:kreska pseudotaktowa	!	!	!
8C/J	.	8C\J	.	8cc\J	8ee\J	.	.	.
!	!	!	!LO:TX:t=P:problem:kreska pseudotaktowa	!	!	!	!	!
.	.	.	16e\Jk	.	.	.	.	.
=66-	=66-	=66-	=66-	=66-	=66-	=66-	=66-	=66-
4.BB/	6	4.BB/	4.d\	16dd\LL	4.gg\	1r	1r	1r
.	.	.	.	16cc\	.	.	.	.
.	.	.	.	16b\	.	.	.	.
.	.	.	.	16a\JJ	.	.	.	.
!	!	!	!	!LO:TX:t=P:problem:mixed beam	!	!	!	!
.	.	.	.	16g/LL	.	.	.	.
.	.	.	.	16gg\	.	.	.	.
8BB/	6	8BB/	8d\	16ffny\	8dd\	.	.	.
.	.	.	.	16gg\JJ	.	.	.	.
8C/L	.	8C/L	8e\L	16ee\LL	8cc\L	.	.	.
.	.	.	.	16ff\J	.	.	.	.
8GG/J	.	8GG/J	8d\	8gg\J	8b\	.	.	.
!LO:TX:t=P:problem:kreska pseudotaktowa	!	!LO:TX:t=P:problem:mixed beam	!	!	!	!	!	!
4D/	5 4#r	8D\L	8.d\	8.gg\L	8.a\	.	.	.
!	!	!LO:TX:t=P:problem:kreska pseudotaktowa	!	!	!	!	!	!
.	.	8DD/J	.	.	.	.	.	.
!	!	!	!	!LO:SIC:v:t=custos gg	!	!	!	!
!	!	!	!LO:TX:t=P:problem:kreska pseudotaktowa	!LO:TX:t=P:problem:♯above	!LO:SIC:v:t=custos b	!	!	!
.	.	.	16d\Jk	16ff#X\Jk	16a\Jk	.	.	.
!	!	!	!	!LO:LB:g=original	!LO:LB:g=original	!	!	!
=67-	=67-	=67-	=67-	=67-	=67-	=67-	=67-	=67-
!LO:TX:t=P:problem:mixed beam	!	!LO:TX:t=P:problem:mixed beam	!	!	!	!LO:TX:b:i:t=Allegro.	!LO:TX:b:t=allegro	!
8GG/L	.	8GG/L	4d\	8gg\L	8b/L	8r	2r	1r
16G\L	.	16G\L	.	8dd\	16b/L	16G\LL	.	.
16F\JJ	6	16F\JJ	.	.	16a/JJ	16F\JJ	.	.
8E\L	6	8E\L	16e\LL	8.cc\	8g/L	8E\L	.	.
.	.	.	16d\	.	.	.	.	.
!	!	!	!	!	!LO:TX:t=P:problem:♯below	!	!	!
8A\J	6\	8A\J	16c\	.	8f#X/J	8A\J	.	.
.	.	.	16d\JJ	16cc\Jk	.	.	.	.
!	!	!	!	!	!LO:TX:t=P:problem:mixed beam	!	!	!
8.G\L	.	8.G\L	4d\	8b/L	8g/L	8.G\L	8r	.
.	.	.	.	8b/	16gg\L	.	8dd\L	.
16F\K	.	16F\Jk	.	.	16aa\JJ	16F\Jk	.	.
!	!	!	!LO:TX:t=P:problem:kreska pseudotaktowa	!	!	!	!	!
8E\	.	16E\LL	4g\	8b/	16gg\LL	16E\LL	8dd\	.
.	.	16F\	.	.	16aa\	16F\	.	.
!LO:TX:t=P:problem:kreska pseudotaktowa	!	!	!	!LO:TX:t=P:problem:kreska pseudotaktowa	!	!	!LO:TX:t=P:problem:kreska pseudotaktowa	!
8D\J	6	16D\	.	8b/J	16ff\	16D\	8dd\J	.
!	!	!LO:SIC:v:t=custos C	!	!	!LO:TX:t=P:problem:kreska pseudotaktowa	!LO:TX:t=P:problem:kreska pseudotaktowa	!	!
.	.	16E\JJ	.	.	16gg\JJ	16E\JJ	.	.
!	!	!LO:LB:g=original	!	!	!	!	!	!
=68-	=68-	=68-	=68-	=68-	=68-	=68-	=68-	=68-
4C/	.	4C/	4g\	16cc/LL	4ee\	4C/	16ee\LL	2r
.	.	.	.	16b/	.	.	16dd\	.
.	.	.	.	16a/	.	.	16cc\	.
.	.	.	.	16g/JJ	.	.	16b\JJ	.
4D/	5#r	8.D/L	4r	8.g/L	8dd\L	8.D/L	16a\LL	.
.	.	.	.	.	.	.	16dd\	.
.	.	.	.	.	8a\J	.	16cc\	.
!	!	!	!	!LO:TX:t=P:problem:♯below	!	!	!	!
.	.	16D/Jk	.	16f#X/Jk	.	16D/Jk	16dd\JJ	.
!	!	!	!	!	!LO:TX:t=P:problem:mixed beam	!	!	!LO:TX:b:t=allegro
4E\	.	4E\	8r	4g/	8g/L	4E\	4b/	8r
.	.	.	16e\LL	.	8ee\	.	.	8gg\L
.	.	.	16f\JJ	.	.	.	.	.
!LO:SIC:v:t=custos F	!	!LO:TX:t=P:problem:kreska pseudotaktowa	!	!LO:TX:t=P:problem:mixed beam	!	!LO:TX:t=P:problem:kreska pseudotaktowa	!LO:TX:t=P:problem:kreska pseudotaktowa	!
4C/	.	4C/	8.g\L	8e/L	8ee\	4C/	4cc\	8gg\
!	!	!	!	!LO:TX:t=P:problem:kreska pseudotaktowa	!LO:TX:t=P:problem:kreska pseudotaktowa	!	!	!LO:TX:t=P:problem:kreska pseudotaktowa
.	.	.	.	8cc\J	8ee\J	.	.	8gg\J
!	!	!	!LO:TX:t=P:problem:kreska pseudotaktowa	!	!	!	!	!
.	.	.	16g\Jk	.	.	.	.	.
!LO:LB:g=original	!	!	!	!	!	!	!	!
=69-	=69-	=69-	=69-	=69-	=69-	=69-	=69-	=69-
4F\	.	4F\	8f\L	4cc\	16ff\LL	4F\	4a/	16aa\LL
.	.	.	.	.	16ee\	.	.	16gg\
.	.	.	8a\J	.	16dd\	.	.	16ff\
.	.	.	.	.	16cc\JJ	.	.	16ee\JJ
4G\	4:3	4G\	8r	8g/L	8.cc\L	4G\	4r	16dd\LL
.	.	.	.	.	.	.	.	16gg\
!	!	!	!	!LO:TX:b:t=d	!	!	!	!
.	.	.	8g\	8d/J	.	.	.	16ff\
.	.	.	.	.	16b\Jk	.	.	16gg\JJ
4C/	.	4C/	8g\	4e/	8cc\L	4C/	8r	4ee\
.	.	.	4c/	.	8g\	.	16cc\LL	.
.	.	.	.	.	.	.	16b\JJ	.
8F\L	.	8F\L	.	8r	8.fny\	8F\L	8a\L	8aa\L
!LO:TX:t=P:problem:kreska pseudotaktowa	!	!LO:TX:t=P:problem:kreska pseudotaktowa	!LO:TX:t=P:problem:kreska pseudotaktowa	!LO:TX:t=P:problem:kreska pseudotaktowa	!	!LO:TX:t=P:problem:kreska pseudotaktowa	!LO:SIC:v:t=custos cc	!LO:TX:t=P:problem:kreska pseudotaktowa
8D\J	.	8D\J	8f\	8d/	.	8D\J	8dd\J	8ff\J
!	!	!	!	!	!LO:TX:t=P:problem:kreska pseudotaktowa	!	!	!
.	.	.	.	.	16g\Jk	.	.	.
!	!	!	!	!	!	!	!LO:LB:g=original	!
=70-	=70-	=70-	=70-	=70-	=70-	=70-	=70-	=70-
8A\L	-	8A\L	4.c/	4e/	8a/L	8A\L	8cc\L	4ee\
8E\	.	8E\	.	.	8g/J	8E\	16gg\L	.
.	.	.	.	.	.	.	16ff\JJ	.
8c\	.	8c\	.	4r	8g/L	8c\	8ee\L	8r
8F\J	.	8F\J	8c/	.	16f/L	8F\J	8aa\J	8a/
.	.	.	.	.	16e/JJ	.	.	.
!LO:TX:t=P:problem:mixed beam	!	!LO:TX:t=P:problem:mixed beam	!	!	!	!LO:TX:t=P:problem:mixed beam	!	!
8G\L	.	8G\L	4B/	8r	8d/	8G\L	8.gg\L	4.b/
8GG/	.	8GG/	.	8g/	4g/	8GG/	.	.
.	.	.	.	.	.	.	16ff\Jk	.
!	!	!	!LO:TX:t=P:problem:kreska pseudotaktowa	!LO:TX:t=P:problem:kreska pseudotaktowa	!	!	!	!
8GG/	6 5	8GG/	4r	4b/	.	8GG/	16ee\LL	.
.	.	.	.	.	.	.	16ff\	.
!LO:TX:t=P:problem:kreska pseudotaktowa	!	!LO:TX:t=P:problem:kreska pseudotaktowa	!	!	!LO:TX:t=P:problem:kreska pseudotaktowa	!	!	!LO:TX:t=P:problem:kreska pseudotaktowa
8GG/J	.	8GG/J	.	.	8f/	8GG/J	16dd\	8b/
!	!	!	!	!	!	!	!LO:TX:t=P:problem:kreska pseudotaktowa	!
.	.	.	.	.	.	.	16ee\JJ	.
!	!	!	!	!	!	!LO:LB:g=original	!	!
=71-	=71-	=71-	=71-	=71-	=71-	=71-	=71-	=71-
16AA/LL	.	16AA/LL	8r	4.a/	4e/	16AA/LL	8cc\L	8cc\L
16GG/	.	16GG/	.	.	.	16GG/	.	.
16FF/	.	16FF/	8A/	.	.	16FF/	8a\J	16cc\L
16EE/JJ	6	16EE/JJ	.	.	.	16EE/JJ	.	16cc\JJ
8DD/L	.	8DD/L	4d\	.	8f/L	8DD/L	8a/L	16dd\LL
.	.	.	.	.	.	.	.	16cc\J
!	!	!	!	!	!	!	!	!LO:SIC:v:t=custos c
8GG/J	.	8GG/J	.	8b/	8g/J	8GG/J	16g/L	8b\J
.	.	.	.	.	.	.	16f/JJ	.
!	!	!	!	!	!	!LO:TX:t=P:problem:mixed beam	!	!LO:LB:g=original
8C/L	.	8CC/L	4c/	4e/	8g\L	8C\L	8e/L	8cc\L
8EE/	6	8EE/	.	.	8cc\	8EE/	8e/	8gg\
8FF/	6 5	8FF/	8r	8r	8.cc\	8FF/	8.d/	8aa\
!LO:TX:t=P:problem:kreska pseudotaktowa	!	!LO:TX:t=P:problem:kreska pseudotaktowa	!	!LO:TX:t=P:problem:kreska pseudotaktowa	!	!LO:TX:t=P:problem:kreska pseudotaktowa	!	!LO:TX:t=P:problem:kreska pseudotaktowa
8GG/J	4:3	8GG/J	8d\	8g/	.	8GG/J	.	8gg\J
!	!	!	!	!	!LO:TX:t=P:problem:kreska pseudotaktowa	!	!LO:TX:t=P:problem:kreska pseudotaktowa	!
.	.	.	.	.	16b\Jk	.	16d/Jk	.
=72-	=72-	=72-	=72-	=72-	=72-	=72-	=72-	=72-
!	!	!	!	!	!	!	!LO:TX:t=P:problem:mixed beam	!
4.C/	.	4C/	4c/	4e/	4cc\	8CC/L	8e/L	8gg\L
.	.	.	.	.	.	8C/	16ee\L	16gg\L
.	.	.	.	.	.	.	16dd\JJ	16ff\JJ
.	.	4r	4r	4r	4r	8C/	8cc\L	8ee\L
8FF/	.	.	.	.	.	8GG/J	8ff\J	8aa\J
4C/	.	2r	2r	2r	2r	4C/	8.ee\L	8.gg\L
.	.	.	.	.	.	.	16dd\Jk	16ff\Jk
!LO:TX:t=P:problem:kreska pseudotaktowa	!	!	!	!	!	!LO:TX:t=P:problem:kreska pseudotaktowa	!	!
4E\	6 5	.	.	.	.	4E\	16cc\LL	16ee\LL
.	.	.	.	.	.	.	16dd\	16ff\
.	.	.	.	.	.	.	16b\	16ee\
!	!	!	!	!	!	!	!LO:TX:t=P:problem:kreska pseudotaktowa	!LO:TX:t=P:problem:kreska pseudotaktowa
.	.	.	.	.	.	.	16cc\JJ	16ff\JJ
=73-	=73-	=73-	=73-	=73-	=73-	=73-	=73-	=73-
!	!	!LO:TX:a:t=2	!LO:TX:a:t=2	!	!LO:TX:a:t=3.	!	!	!
4F\	.	1r	1r	1r	1r	4F\	4.a/	16cc\LL
.	.	.	.	.	.	.	.	16ff\
.	.	.	.	.	.	.	.	16ee\
.	.	.	.	.	.	.	.	16ff\JJ
4F#X\	6 5	.	.	.	.	4F#X\	.	16dd\LL
.	.	.	.	.	.	.	.	16ee\
.	.	.	.	.	.	.	8a/	16cc\
.	.	.	.	.	.	.	.	16dd\JJ
8.G\L	.	.	.	.	.	8r	8g/	4b/
.	.	.	.	.	.	16G\LL	4g/	.
!	!	!	!	!	!	!LO:SIC:v:s=16Fn\J	!	!
16Fny\K	6	.	.	.	.	16Fny\JJ	.	.
8E\	.	.	.	.	.	8E\L	.	8.cc\L
!LO:SIC:v:t=custos G	!	!	!	!	!	!LO:TX:t=P:problem:kreska pseudotaktowa	!LO:TX:t=P:problem:kreska pseudotaktowa	!
8A\J	6\	.	.	.	.	8A\J	8f#X/	.
!	!	!	!	!	!	!	!	!LO:TX:t=P:problem:kreska pseudotaktowa
.	.	.	.	.	.	.	.	16cc\Jk
!LO:PB:g=original	!	!	!	!	!	!	!	!
=74-	=74-	=74-	=74-	=74-	=74-	=74-	=74-	=74-
!LO:TX:a:t=gotto e' Violono. di G. Forster	!	!LO:SIC:v:t=custos D	!	!LO:SIC:v:t=custos a	!	!	!	!
8.G\L	.	1r	1r	1r	1r	8.G\L	8g/	8b/
.	.	.	.	.	.	.	4b/	4dd\
16F\K	.	.	.	.	.	16F\Jk	.	.
8E\	6	.	.	.	.	16E\LL	.	.
.	.	.	.	.	.	16F\	.	.
8D\J	.	.	.	.	.	16D\	8b/	8dd\
.	.	.	.	.	.	16E\JJ	.	.
!	!	!	!	!	!	!	!LO:TX:t=P:problem:mixed beam	!
4C/	.	.	.	.	.	8C/L	16cc\LL	4ee\
.	.	.	.	.	.	.	16e/	.
.	.	.	.	.	.	16D/L	16fny/	.
.	.	.	.	.	.	16E/JJ	16g/JJ	.
8.F\L	.	.	.	.	.	8.F\L	8a\L	16r
.	.	.	.	.	.	.	.	16cc\LL
.	.	.	.	.	.	.	16b\L	16dd\
!LO:TX:t=P:problem:kreska pseudotaktowa	!	!	!	!	!	!LO:TX:t=P:problem:kreska pseudotaktowa	!LO:TX:t=P:problem:♯above	!LO:TX:t=P:problem:kreska pseudotaktowa
16E\Jk	6\	.	.	.	.	16E\Jk	16cc#X\JJ	16ee\JJ
!	!	!LO:PB:g=original	!LO:PB:g=original	!LO:PB:g=original	!	!	!LO:LB:g=original	!
=75-	=75-	=75-	=75-	=75-	=75-	=75-	=75-	=75-
4D/	.	2r	2r	2r	1r	16D\LL	8dd\	8.ff\L
.	.	.	.	.	.	16E\	.	.
.	.	.	.	.	.	16F\	4dd\	.
.	.	.	.	.	.	16G\JJ	.	16ee\Jk
!LO:TX:t=P:problem:mixed beam	!	!	!	!	!	!LO:TX:t=P:problem:mixed beam	!	!
8A\L	4	.	.	.	.	8A\L	.	4ee\
8AA/J	#	.	.	.	.	8AA/J	8cc#X\	.
!LO:TX:t=P:problem:mixed beam	!	!	!	!	!	!	!	!LO:TX:t=P:problem:♯above
8DD/L	#	8r	8r	8r	.	4DD/	4dd\	4ff#X\
8D\	#	8D/L	16f#X\LL	16a/LL	.	.	.	.
.	.	.	16e\JJ	16g/JJ	.	.	.	.
8D\	.	8D/	8d\L	8f#X/L	.	4r	4r	4r
!LO:TX:t=P:problem:kreska pseudotaktowa	!	!LO:TX:t=P:problem:kreska pseudotaktowa	!LO:TX:t=P:problem:kreska pseudotaktowa	!LO:TX:t=P:problem:kreska pseudotaktowa	!	!	!	!
8GG/J	.	8GG/J	8g\J	8b/J	.	.	.	.
!	!	!	!	!	!LO:PB:g=original	!	!	!
=76-	=76-	=76-	=76-	=76-	=76-	=76-	=76-	=76-
!	!	!	!	!	!	!	!LO:TX:a:t=3.	!LO:TX:b:t=4
4D/	#	4D/	4f#X\	8.a/L	8r	1r	1r	1r
.	.	.	.	.	16dd\LL	.	.	.
.	.	.	.	16a/Jk	16cc\JJ	.	.	.
8G\L	.	8G\L	4g\	8g/L	8b\L	.	.	.
8C\J	.	8C\J	.	8cc/J	8ee\J	.	.	.
!LO:TX:t=P:problem:mixed beam	!	!LO:TX:t=P:problem:mixed beam	!	!	!	!	!	!
8GG/L	.	8GG/L	4.g\	16b\LL	16dd\LL	.	.	.
.	.	.	.	16a\	16cc\	.	.	.
8G\	.	8G\	.	16b\	16dd\	.	.	.
.	.	.	.	16cc\JJ	16ee\JJ	.	.	.
8G\	.	8G\	.	8.b/L	8dd\L	.	.	.
!LO:TX:t=P:problem:kreska pseudotaktowa	!	!LO:TX:t=P:problem:kreska pseudotaktowa	!LO:TX:t=P:problem:kreska pseudotaktowa	!	!	!	!	!
8G\J	.	8G\J	8d\	.	16gg\L	.	.	.
!	!	!	!	!LO:TX:t=P:problem:kreska pseudotaktowa	!LO:TX:t=P:problem:kreska pseudotaktowa	!	!	!
.	.	.	.	16b/Jk	16ff\JJ	.	.	.
=77-	=77-	=77-	=77-	=77-	=77-	=77-	=77-	=77-
8A\L	.	16A\LL	4c/	8cc\	8ee\L	1r	1r	1r
.	.	16G\	.	.	.	.	.	.
8F\	.	16F\	.	4cc\	16aa\L	.	.	.
.	.	16E\JJ	.	.	16gg\JJ	.	.	.
8D\	7	8D\L	4d\	.	8.ff\L	.	.	.
8G\J	7	8G\J	.	8b/	.	.	.	.
.	.	.	.	.	16ff\Jk	.	.	.
8.C/L	.	16C/LL	8c\L	8r	16ee\LL	.	.	.
.	.	16D/	.	.	16ff\	.	.	.
.	.	16C/	8a\	8cc\L	16ee\	.	.	.
16D/K	.	16D/JJ	.	.	16ff\JJ	.	.	.
8E/	6	8E\L	8.e\	8cc\	8gg\L	.	.	.
!LO:TX:t=P:problem:kreska pseudotaktowa	!	!LO:TX:t=P:problem:kreska pseudotaktowa	!	!LO:TX:t=P:problem:kreska pseudotaktowa	!LO:TX:t=P:problem:kreska pseudotaktowa	!	!	!
8C/J	.	8C\J	.	8cc\J	8ee\J	.	.	.
!	!	!	!LO:TX:t=P:problem:kreska pseudotaktowa	!	!	!	!	!
.	.	.	16e\Jk	.	.	.	.	.
=78-	=78-	=78-	=78-	=78-	=78-	=78-	=78-	=78-
!	!	!	!	!	!	!LO:SIC:v:t=custos G	!	!
!	!	!	!	!	!	!LO:SIC:v:t=custos G	!	!
!	!	!	!	!	!	!LO:TX:b:t=verte.	!LO:SIC:v:t=custos dd	!
4.BB/	6	4.BB/	4.d\	16dd\LL	4.gg\	1r	1r	1r
.	.	.	.	16cc\	.	.	.	.
.	.	.	.	16b\	.	.	.	.
.	.	.	.	16a\JJ	.	.	.	.
!	!	!	!	!LO:TX:t=P:problem:mixed beam	!	!	!	!
.	.	.	.	16g\LL	.	.	.	.
.	.	.	.	16gg\	.	.	.	.
8BB/	6	8BB/	8d\	16ffny\	8dd\	.	.	.
.	.	.	.	16gg\JJ	.	.	.	.
8C/L	.	8C/L	8e\L	16ee\LL	8cc\L	.	.	.
!	!	!	!	!LO:TX:t=P:problem:♯above	!	!	!	!
.	.	.	.	16ff#X\J	.	.	.	.
8GG/J	.	8GG/J	8d\	8gg\J	8b\	.	.	.
!LO:TX:t=P:problem:mixed beam	!	!LO:TX:t=P:problem:mixed beam	!	!	!	!	!	!
8D\L	5 4	8D\L	8.d\	8.gg\L	8.a\	.	.	.
!LO:TX:t=P:problem:kreska pseudotaktowa	!	!LO:TX:t=P:problem:kreska pseudotaktowa	!	!	!	!	!	!
8DD/J	#	8DD/J	.	.	.	.	.	.
!	!	!	!	!LO:TX:t=P:problem:♯above	!	!	!	!
!	!	!	!LO:TX:t=P:problem:kreska pseudotaktowa	!LO:TX:t=P:problem:kreska pseudotaktowa	!LO:TX:t=P:problem:kreska pseudotaktowa	!	!	!
.	.	.	16d\Jk	16ff#X\Jk	16a\Jk	.	.	.
!	!	!	!	!	!	!LO:PB:g=original	!	!
=79-	=79-	=79-	=79-	=79-	=79-	=79-	=79-	=79-
!LO:TX:t=P:problem:mixed beam	!	!LO:TX:t=P:problem:mixed beam	!	!	!	!	!	!
8GG/L	.	8GG/L	4d\	8gg\L	8b/L	8r	2r	1r
8G\	.	16G\L	.	8dd\	16b/L	16G\LL	.	.
.	.	16F\JJ	.	.	16a/JJ	16F\JJ	.	.
8E\	6	8E\L	16e\LL	8.cc\	8g/L	8E\L	.	.
.	.	.	16d\	.	.	.	.	.
!	!	!	!	!	!LO:TX:t=P:problem:♯below	!	!	!
8A\J	6\	8A\J	16c\	.	8f#X/J	8A\J	.	.
!	!	!	!	!LO:SIC:v:t=custos b	!	!	!	!
.	.	.	16d\JJ	16cc\Jk	.	.	.	.
!LO:LB:g=original	!	!	!	!LO:LB:g=original	!LO:TX:t=P:problem:mixed beam	!	!LO:PB:g=original	!
8.G\L	.	8.G\L	4d\	8b/L	8g/L	8.G\L	8r	.
.	.	.	.	8b/	16gg\L	.	8dd\L	.
16F\K	.	16F\Jk	.	.	16aa\JJ	16F\Jk	.	.
!	!	!	!LO:TX:t=P:problem:kreska pseudotaktowa	!	!	!	!	!
8E\	6	16E\LL	4g\	8b/	16gg\LL	16E\LL	8dd\	.
.	.	16F\	.	.	16aa\	16F\	.	.
!LO:TX:t=P:problem:kreska pseudotaktowa	!	!	!	!LO:TX:t=P:problem:kreska pseudotaktowa	!	!	!LO:TX:t=P:problem:kreska pseudotaktowa	!
8D\J	.	16D\	.	8b/J	16ff\	16D\	8dd\J	.
!	!	!LO:SIC:v:t=custos C	!	!	!LO:SIC:v:t=custos e	!LO:TX:t=P:problem:kreska pseudotaktowa	!	!
.	.	16E\JJ	.	.	16gg\JJ	16E\JJ	.	.
!	!	!LO:LB:g=original	!	!	!LO:LB:g=original	!	!	!
=80-	=80-	=80-	=80-	=80-	=80-	=80-	=80-	=80-
4C/	.	4C/	4g\	16cc/LL	4ee\	4C/	16ee\LL	2r
.	.	.	.	16b/	.	.	16dd\	.
.	.	.	.	16a/	.	.	16ccny\	.
.	.	.	.	16g/JJ	.	.	16b\JJ	.
4D/	#	8.D/L	4r	8.g/L	8dd\L	8.D/L	16a\LL	.
.	.	.	.	.	.	.	16dd\	.
.	.	.	.	.	8a\J	.	16cc\	.
!	!	!	!	!LO:TX:t=P:problem:♯below	!	!	!	!
.	.	16D/Jk	.	16f#X/Jk	.	16D/Jk	16dd\JJ	.
!	!	!	!	!	!	!	!	!LO:PB:g=original
4E\	.	4E\	8r	4g/	8g\L	4E\	4b/	8r
.	.	.	16e\LL	.	8ee\	.	.	8gg\L
.	.	.	16fny\JJ	.	.	.	.	.
!LO:TX:t=P:problem:kreska pseudotaktowa	!	!LO:TX:t=P:problem:kreska pseudotaktowa	!	!LO:TX:t=P:problem:mixed beam	!	!LO:TX:t=P:problem:kreska pseudotaktowa	!LO:TX:t=P:problem:kreska pseudotaktowa	!
4C/	.	4C/	8.g\L	8e/L	8ee\	4C/	4cc\	8gg\
!	!	!	!	!LO:TX:t=P:problem:kreska pseudotaktowa	!LO:TX:t=P:problem:kreska pseudotaktowa	!	!	!LO:TX:t=P:problem:kreska pseudotaktowa
.	.	.	.	8cc\J	8ee\J	.	.	8gg\J
!	!	!	!LO:SIC:v:t=custos f	!	!	!	!	!
.	.	.	16g\Jk	.	.	.	.	.
!	!	!	!LO:LB:g=original	!	!	!	!	!
=81-	=81-	=81-	=81-	=81-	=81-	=81-	=81-	=81-
4F\	.	4F\	8f\L	4cc\	16ff\LL	4F\	4a/	16aa\LL
.	.	.	.	.	16ee\	.	.	16gg\
.	.	.	8a\J	.	16dd\	.	.	16ffny\
.	.	.	.	.	16cc\JJ	.	.	16ee\JJ
!	!	!	!	!	!	!LO:TX:t=P:problem:mixed beam	!	!
4G\	4:3	4G\	8r	8g/L	8.cc\L	8G\L	4r	16dd\LL
.	.	.	.	.	.	.	.	16gg\
!	!	!	!	!LO:TX:b:t=d	!	!	!	!
.	.	.	8g\	8d/J	.	8GG/J	.	16ff\
.	.	.	.	.	16b\Jk	.	.	16gg\JJ
4C/	.	4C/	8g\	4e/	8cc\L	4C/	8r	4ee\
.	.	.	4c/	.	8g\	.	16cc\LL	.
.	.	.	.	.	.	.	16b\JJ	.
8F\L	.	8F\L	.	8r	8.fny\	8F\L	8a\L	8aa\L
!LO:TX:t=P:problem:kreska pseudotaktowa	!	!LO:TX:t=P:problem:kreska pseudotaktowa	!LO:TX:t=P:problem:kreska pseudotaktowa	!LO:TX:t=P:problem:kreska pseudotaktowa	!	!LO:TX:t=P:problem:kreska pseudotaktowa	!LO:TX:t=P:problem:kreska pseudotaktowa	!LO:TX:t=P:problem:kreska pseudotaktowa
8D\J	.	8D\J	8f\	8d/	.	8D\J	8dd\J	8ff\J
!	!	!	!	!	!LO:TX:t=P:problem:kreska pseudotaktowa	!	!	!
.	.	.	.	.	16g\Jk	.	.	.
=82-	=82-	=82-	=82-	=82-	=82-	=82-	=82-	=82-
8A\L	.	8A\L	4.c/	4e/	8a/L	8A\L	8cc\L	4ee\
8E\J	.	8E\J	.	.	8g/J	8E\	16gg\L	.
.	.	.	.	.	.	.	16ff\JJ	.
8c\L	.	8c\L	.	4r	8g/L	8c\	8ee\L	8r
8F\J	.	8F\J	8c/	.	16f/L	8F\J	8aa\J	8a/
.	.	.	.	.	16e/JJ	.	.	.
!LO:TX:t=P:problem:mixed beam	!	!LO:TX:t=P:problem:mixed beam	!	!	!	!LO:TX:t=P:problem:mixed beam	!	!
8G\L	.	8G\L	4B/	8r	8d/	8G\L	8.gg\L	4.b/
8GG/	.	8GG/	.	8g/	4g/	8GG/	.	.
.	.	.	.	.	.	.	16ff\Jk	.
!	!	!	!LO:TX:t=P:problem:kreska pseudotaktowa	!LO:TX:t=P:problem:kreska pseudotaktowa	!	!	!	!
8GG/	.	8GG/	4r	4b/	.	8GG/	16ee\LL	.
.	.	.	.	.	.	.	16ff\	.
!LO:TX:t=P:problem:kreska pseudotaktowa	!	!LO:TX:t=P:problem:kreska pseudotaktowa	!	!	!LO:TX:t=P:problem:kreska pseudotaktowa	!LO:TX:t=P:problem:kreska pseudotaktowa	!	!LO:TX:t=P:problem:kreska pseudotaktowa
8GG/J	6 5	8GG/J	.	.	8f/	8GG/J	16dd\	8b/
!	!	!	!	!	!	!	!LO:TX:t=P:problem:kreska pseudotaktowa	!
.	.	.	.	.	.	.	16ee\JJ	.
=83-	=83-	=83-	=83-	=83-	=83-	=83-	=83-	=83-
16AA/LL	.	16AA/LL	8r	4.a/	4e/	16AA/LL	8cc\L	8cc\L
16GG/	.	16GG/	.	.	.	16GG/	.	.
16FF/	.	16FF/	8A/	.	.	16FF/	8a\J	8cc\J
16EE/JJ	6	16EE/JJ	.	.	.	16EE/JJ	.	.
8DD/L	.	8DD/L	4d\	.	8f/L	8DD/L	8a/L	16dd\LL
.	.	.	.	.	.	.	.	16cc\J
8GG/J	.	8GG/J	.	8b/	8g/J	8GG/J	16g/L	8b\J
!	!	!	!	!	!	!	!LO:SIC:v:t=custos e	!
.	.	.	.	.	.	.	16f/JJ	.
!	!	!	!	!	!	!	!LO:LB:g=original	!
8C/L	.	8CC/L	4c/	4e/	8g\L	8C/L	8e/L	8cc\L
8EE/	6	8EE/	.	.	8cc\	8EE/	8e/	8gg\
8FF/	6 5	8FF/	8r	8r	8.cc\	8FF/	8.d/	8aa\
!LO:TX:t=P:problem:kreska pseudotaktowa	!	!LO:TX:t=P:problem:kreska pseudotaktowa	!LO:TX:t=P:problem:kreska pseudotaktowa	!LO:TX:t=P:problem:kreska pseudotaktowa	!	!	!	!LO:TX:t=P:problem:kreska pseudotaktowa
8GG/J	4:3	8GG/J	8d\	8g/	.	8GG/J	.	8gg\J
!	!	!	!	!	!LO:TX:t=P:problem:kreska pseudotaktowa	!	!LO:TX:t=P:problem:kreska pseudotaktowa	!
.	.	.	.	.	16b\Jk	.	16d/Jk	.
!	!	!	!	!	!	!LO:LB:g=original	!	!
=84-	=84-	=84-	=84-	=84-	=84-	=84-	=84-	=84-
4.C/	.	4.C/	4.c/	4.e/	4.cc\	4.C/	4.e/	4.gg\
8C/	.	8C/	8e\	8g/	8cc\	8c\	8e/	8gg\
4F\	.	4FF/	4c/	4.fny/	4cc\	4F\	4f/	4aa\
!	!	!	!	!	!	!	!	!LO:TX:b:t=g
4E\	6	4EE/	4c/	.	4cc\	4E\	4g/	4gg\
.	.	.	.	8cc\	.	.	.	.
=85-	=85-	=85-	=85-	=85-	=85-	=85-	=85-	=85-
1F	.	2.FF/	2.c/	2.a/	2.cc\	2.F\	2.f/	2.aa\
.	.	4FF/	4c/	4a/	4cc\	4FF/	4f/	4aa\
!	!	!	!	!	!LO:LB:g=original	!	!	!
=86-	=86-	=86-	=86-	=86-	=86-	=86-	=86-	=86-
!	!	!	!LO:SIC:v:t=custos c	!	!	!	!	!
1C;	.	1C;	1c;	1cc;<	1cc;	1C;	1e;	1gg;<
!LO:LB:g=original	!	!LO:LB:g=original	!LO:LB:g=original	!LO:LB:g=original	!	!	!	!
=87:||:	=87||-	=87:||:	=87:||:	=87:||:	=87:||:	=87:||:	=87:||:	=87:||:
*M6/8	*	*M6/8	*M6/8	*M6/8	*M6/8	*M6/8	*M6/8	*M6/8
!LO:TX:b:t=Allegro.	!	!LO:TX:a:t=Allegro	!LO:TX:b:t=Allegro	!LO:TX:a:t=Allegro	!LO:TX:b:t=Allegro	!	!LO:TX:b:t=allegro	!LO:TX:b:t=Allegro
8r	.	2.r	4.r	8r	8r	2.r	8r	8r
8r	.	.	.	8r	8r	.	8r	8r
8c\	.	.	.	8c/	8e/	.	8cc\	8gg\
4c\	.	.	8r	4c/	4g/	.	4cc\	8.ee\L
.	.	.	8r	.	.	.	.	.
.	.	.	.	.	.	.	.	16dd\K
!LO:TX:t=P:problem:kreska pseudotaktowa	!	!	!LO:TX:t=P:problem:kreska pseudotaktowa	!LO:TX:t=P:problem:kreska pseudotaktowa	!LO:TX:t=P:problem:kreska pseudotaktowa	!	!LO:TX:t=P:problem:kreska pseudotaktowa	!LO:TX:t=P:problem:kreska pseudotaktowa
8c\	.	.	8c/	8e/	8g/	.	8cc\	8cc\J
=88-	=88-	=88-	=88-	=88-	=88-	=88-	=88-	=88-
*^	*	*	*	*	*	*	*	*
8.B/L	8r	.	8r	8.B/L	8d/	4g/	8r	4dd\	8.gg\L
.	8r	.	8r	.	4g/	.	8r	.	.
16A/K	.	.	.	16A/K	.	.	.	.	16aa\K
!	!	!	!	!	!	!	!LO:TX:a:t=Alegro	!	!
8G/J	8GG\	.	8GG/	8G/J	.	8dd\	8GG/	8dd\	8bb\J
!	!	!	!	!	!	!	!	!LO:TX:t=P:problem:kreska pseudotaktowa	!LO:TX:t=P:problem:kreska pseudotaktowa
4ryy	8.EE/L	6	8.EE/L	4c/	8.g/L	4cc\	8.EE/L	4.ee\	4.ccc\
.	16DD/K	.	16DD/K	.	16f/K	.	16DD/K	.	.
!LO:TX:t=P:problem:kreska pseudotaktowa	!	!	!LO:TX:t=P:problem:kreska pseudotaktowa	!LO:TX:t=P:problem:kreska pseudotaktowa	!LO:TX:t=P:problem:kreska pseudotaktowa	!LO:TX:t=P:problem:kreska pseudotaktowa	!LO:TX:t=P:problem:kreska pseudotaktowa	!	!
8ryy	8CC/J	.	8CC/J	8c/	8e/J	8cc\	8CC/J	.	.
*v	*v	*	*	*	*	*	*	*	*
=89-	=89-	=89-	=89-	=89-	=89-	=89-	=89-	=89-
8.GG/L	.	8.GG/L	4G/	4d/	8.b\L	8.GG/L	4.r	4.r
16AA/K	.	16AA/K	.	.	16cc\K	16AA/K	.	.
8BB/J	6	8BB/J	8G/	8d/	8dd\J	8BB/J	.	.
4C/	.	4C/	4G/	4c/	4ee\	4C/	8r	8r
.	.	.	.	.	.	.	8r	8r
!LO:TX:t=P:problem:kreska pseudotaktowa	!	!LO:TX:t=P:problem:kreska pseudotaktowa	!LO:TX:t=P:problem:kreska pseudotaktowa	!LO:TX:t=P:problem:kreska pseudotaktowa	!LO:TX:t=P:problem:kreska pseudotaktowa	!LO:TX:t=P:problem:kreska pseudotaktowa	!LO:TX:t=P:problem:kreska pseudotaktowa	!LO:TX:t=P:problem:kreska pseudotaktowa
8C/	.	8C/	8c/	8e/	8g/	8C/	8cc\	8ee\
=90-	=90-	=90-	=90-	=90-	=90-	=90-	=90-	=90-
4.GG/	.	4.GG/	4.d\	4.g/	4.b/	4.GG/	8.b/L	8.dd\L
.	.	.	.	.	.	.	16a/K	16cc\K
.	.	.	.	.	.	.	8g/J	8b\J
4C/	6 5	4C/	4c/	8r	4ee\	4C/	8.g/L	4a/
.	.	.	.	8r	.	.	.	.
.	.	.	.	.	.	.	16a/K	.
!	!	!	!	!	!	!	!LO:TX:t=P:problem:♯below	!
!LO:TX:t=P:problem:kreska pseudotaktowa	!	!	!	!LO:TX:t=P:problem:kreska pseudotaktowa	!	!LO:TX:t=P:problem:kreska pseudotaktowa	!LO:SIC:v:t=custos g	!LO:TX:t=P:problem:kreska pseudotaktowa
8D/	#	8D/	8A/	8d/	16dd\LL	8D/	8f#X/J	8a/
.	.	.	.	.	16cc\JJ	.	.	.
!	!	!	!	!	!	!	!LO:LB:g=original	!
=91-	=91-	=91-	=91-	=91-	=91-	=91-	=91-	=91-
[4.GG/	.	[4.GG/	[4.G/	[4.d/	[4.b/	[4.GG/	[4.g/	[4.b/
4GG]	.	4GG]	4G]	4d]	4b/]	4GG]	4g]	4b/]
!LO:TX:t=P:problem:kreska pseudotaktowa	!	!	!	!	!	!	!	!
=:||:	=	=:||:	=:||:	=:||:	=:||:	=:||:	=:||:	=:||:
!LO:SIC:v:t=custos F	!	!	!LO:TX:t=P:problem:kreska pseudotaktowa	!LO:TX:t=P:problem:kreska pseudotaktowa	!LO:TX:t=P:problem:kreska pseudotaktowa	!LO:TX:t=P:problem:kreska pseudotaktowa	!LO:TX:t=P:problem:kreska pseudotaktowa	!LO:TX:t=P:problem:kreska pseudotaktowa
8A\	.	8r	8r	8dd\	8r	8r	8r	8r
!LO:LB:g=original	!	!	!	!	!	!	!	!
=92-	=92-	=92-	=92-	=92-	=92-	=92-	=92-	=92-
!	!	!LO:TX:a:t=2	!LO:TX:a:t=3	!	!	!LO:TX:a:t=2	!LO:TX:a:t=3.	!LO:TX:a:t=4
8.F\L	.	2.r	2.r	8.b\L	4.r	2.r	2.r	2.r
16G\K	.	.	.	16cc\K	.	.	.	.
8A\J	.	.	.	8dd\J	.	.	.	.
8.D\L	.	.	.	8.g/L	8r	.	.	.
.	.	.	.	.	8r	.	.	.
16E\K	.	.	.	16a/K	.	.	.	.
!	!	!	!	!LO:SIC:v:t=custos c	!	!	!	!
!LO:TX:t=P:problem:kreska pseudotaktowa	!	!	!	!LO:TX:t=P:problem:kreska pseudotaktowa	!LO:SIC:v:t=custos e	!	!	!
8F\J	6	.	.	8b/J	8gg\	.	.	.
!	!	!	!	!LO:LB:g=original	!LO:LB:g=original	!	!	!
=93-	=93-	=93-	=93-	=93-	=93-	=93-	=93-	=93-
!	!	!	!	!	!	!LO:SIC:v:t=custos A	!	!
4G\	.	2.r	2.r	4cc\	8.ee\L	2.r	2.r	2.r
.	.	.	.	.	16ff\K	.	.	.
8F\	6	.	.	8b/	8gg\J	.	.	.
4E\	.	.	.	4a/	8.cc\L	.	.	.
.	.	.	.	.	16dd\K	.	.	.
!LO:TX:t=P:problem:kreska pseudotaktowa	!	!	!	!LO:TX:t=P:problem:kreska pseudotaktowa	!LO:TX:t=P:problem:kreska pseudotaktowa	!	!	!
8D/	.	.	.	8g/	8ee\J	.	.	.
!	!	!	!	!	!	!LO:LB:g=original	!	!
=94-	=94-	=94-	=94-	=94-	=94-	=94-	=94-	=94-
!	!	!	!	!LO:TX:t=P:problem:mixed beam	!	!	!	!
8C/	.	4.r	2.r	8f/L	4ff\	4.r	2.r	2.r
4AA/	.	.	.	8d/	.	.	.	.
.	.	.	.	8dd/J	8ff\	.	.	.
4A\	4	8r	.	8.dd\L	4ee\	8r	.	.
.	.	8r	.	.	.	8r	.	.
.	.	.	.	16ee\K	.	.	.	.
!LO:TX:t=P:problem:kreska pseudotaktowa	!	!	!	!LO:TX:t=P:problem:♯above	!	!	!	!
!LO:N:vis=4	!	!LO:TX:t=P:problem:kreska pseudotaktowa	!	!LO:TX:t=P:problem:kreska pseudotaktowa	!LO:TX:t=P:problem:kreska pseudotaktowa	!LO:TX:t=P:problem:kreska pseudotaktowa	!	!
8A\	#	8A\	.	8cc#X\J	8ee\	8A\	.	.
=95-	=95-	=95-	=95-	=95-	=95-	=95-	=95-	=95-
8.F#X\L	6	8.F#X\L	8r	4dd\	4ff#X\	8.F#X\L	4.r	2.r
.	.	.	8r	.	.	.	.	.
16G\K	.	16G\K	.	.	.	16G\K	.	.
8A\J	#	8A\J	8a\	8cc#X\	8ee\	8A\J	.	.
!	!	!	!	!	!LO:TX:t=P:problem:kreska pseudotaktowa	!	!	!
8.D\L	#	8.D\L	8.f#X\L	4dd\	4.ff#X\	8.D\L	8r	.
.	.	.	.	.	.	.	8r	.
16E\K	.	16E\K	16g\K	.	.	16E\K	.	.
!LO:TX:t=P:problem:kreska pseudotaktowa	!	!	!	!	!	!LO:TX:t=P:problem:kreska pseudotaktowa	!	!
!LO:TX:t=P:problem:♯above	!	!LO:TX:t=P:problem:♯above	!LO:SIC:v:t=custos d	!LO:TX:t=P:problem:kreska pseudotaktowa	!	!LO:TX:t=P:problem:♯above	!LO:TX:t=P:problem:kreska pseudotaktowa	!
8F#X\J	4	8F#X\J	8a\J	8a/	.	8F#X\J	8dd\	.
!	!	!LO:LB:g=original	!LO:LB:g=original	!	!	!	!	!
=96-	=96-	=96-	=96-	=96-	=96-	=96-	=96-	=96-
8.G\L	.	8.G\L	4.d\	4.g/	8r	8.G\L	8.b\L	4.r
.	.	.	.	.	8r	.	.	.
16A\K	.	16A\K	.	.	.	16A\K	16cc\K	.
8B\J	6	8B\J	.	.	8dd\	8B\J	8dd\J	.
!	!	!	!	!LO:TX:t=P:problem:kreska pseudotaktowa	!	!	!	!
8.E\L	.	8.E\L	4c/	4.g/	4ee\	8.E\L	8.g/L	8r
.	.	.	.	.	.	.	.	8r
16Fny\K	.	16Fny\K	.	.	.	16Fny\K	16a/K	.
!	!	!	!	!	!	!	!	!LO:SIC:v:t=custos e
!LO:SIC:v:t=custos C	!	!LO:TX:t=P:problem:kreska pseudotaktowa	!LO:TX:t=P:problem:kreska pseudotaktowa	!	!LO:TX:t=P:problem:kreska pseudotaktowa	!LO:TX:t=P:problem:kreska pseudotaktowa	!LO:TX:t=P:problem:kreska pseudotaktowa	!LO:TX:t=P:problem:kreska pseudotaktowa
8G\J	.	8G\J	8B/	.	8dd\	8G\J	8b/J	8gg\
!LO:LB:g=original	!	!	!	!	!	!	!	!LO:LB:g=original
=97-	=97-	=97-	=97-	=97-	=97-	=97-	=97-	=97-
8.C/L	.	8.C/L	4.e\	8g/	4.ee\	8.C/L	4cc\	8.ee\L
.	.	.	.	4ccny\	.	.	.	.
16D/K	.	16D/K	.	.	.	16D/K	.	16ff\K
8E/J	6	8E/J	.	.	.	8E/J	8g/	8gg\J
!	!	!	!LO:TX:t=P:problem:kreska pseudotaktowa	!	!	!	!	!
8.AA/L	.	8.AA/L	4.r	4cc\	4ffny\	8.AA/L	4a/	8.cc\L
16BB/K	6	16BB/K	.	.	.	16BB/K	.	16dd\K
!LO:TX:t=P:problem:kreska pseudotaktowa	!	!LO:TX:t=P:problem:kreska pseudotaktowa	!	!LO:TX:t=P:problem:kreska pseudotaktowa	!LO:TX:t=P:problem:kreska pseudotaktowa	!LO:TX:t=P:problem:kreska pseudotaktowa	!LO:TX:t=P:problem:kreska pseudotaktowa	!LO:TX:t=P:problem:kreska pseudotaktowa
8C/J	6	8C/J	.	8a/	8ee\	8C/J	8a/	8ee\J
=98-	=98-	=98-	=98-	=98-	=98-	=98-	=98-	=98-
4D/	6 5	4D/	8r	4b/	4ff\	4D/	4a/	4b/
.	.	.	8r	.	.	.	.	.
8E\	#	8E\	8e\	8b/	8ee\	8E\	8g#X/	8b/
!LO:TX:t=P:problem:kreska pseudotaktowa	!	!LO:TX:t=P:problem:kreska pseudotaktowa	!	!	!LO:SIC:v:t=custos e	!LO:TX:t=P:problem:kreska pseudotaktowa	!	!
4.AA/	#	4.AA/	8.c#X\L	4a/	4.ee\	4.AA/	4a/	8cc#X\
!	!	!	!	!	!	!	!	!LO:TX:t=P:problem:kreska pseudotaktowa
.	.	.	.	.	.	.	.	4aa\
.	.	.	16d\K	.	.	.	.	.
!	!	!	!LO:TX:t=P:problem:kreska pseudotaktowa	!LO:TX:t=P:problem:kreska pseudotaktowa	!	!	!LO:TX:t=P:problem:kreska pseudotaktowa	!
.	.	.	8e\J	8cc#X\	.	.	8a/	.
!	!	!	!	!	!LO:LB:g=original	!	!	!
=99-	=99-	=99-	=99-	=99-	=99-	=99-	=99-	=99-
4AA/	#	8r	8.A/L	4ee\	8ee\	8r	8.cc#X\L	4aa\
.	.	8r	.	.	4a/	8r	.	.
.	.	.	16B/K	.	.	.	16dd\K	.
8A\	#	8A\	8c#X/J	8aa\	.	8A\	8ee\J	8ee\
8.F#X\L	6	8.F#X\L	4d\	4aa\	4a/	8.F#X\L	4dd\	4ff#X\
16G\K	.	16G\K	.	.	.	16G\K	.	.
!LO:TX:t=P:problem:kreska pseudotaktowa	!	!LO:TX:t=P:problem:kreska pseudotaktowa	!LO:TX:t=P:problem:kreska pseudotaktowa	!LO:SIC:v:t=custos ff	!LO:TX:t=P:problem:kreska pseudotaktowa	!LO:SIC:v:t=custos D	!LO:SIC:v:t=custos d	!LO:TX:t=P:problem:kreska pseudotaktowa
8A\J	#	8A\J	8A/	8aa\	8a/	8A\J	8cc#X\	8ee\
!	!	!	!	!LO:LB:g=original	!	!LO:LB:g=original	!LO:LB:g=original	!
=100-	=100-	=100-	=100-	=100-	=100-	=100-	=100-	=100-
8.D\L	#	8.D\L	4.A/	8.ff#X\L	4a/	8.D\L	4dd\	4.ff#X\
16E\K	.	16E\K	.	16gg\K	.	16E\K	.	.
!LO:SIC:v:s=8F#\J	!	!LO:TX:t=P:problem:♯above	!	!	!	!LO:TX:t=P:problem:♯above	!	!
8F#\J	6	8F#X\J	.	8aa\J	8d/	8F#X\J	8dd\	.
!	!	!	!LO:TX:t=P:problem:kreska pseudotaktowa	!LO:TX:t=P:problem:kreska pseudotaktowa	!LO:TX:t=P:problem:kreska pseudotaktowa	!	!	!LO:TX:t=P:problem:kreska pseudotaktowa
4G\	.	4G\	4.B/	4.gg\	4.d/	4G\	8.b\L	4.r
.	.	.	.	.	.	.	16ccny\K	.
!LO:TX:t=P:problem:kreska pseudotaktowa	!	!LO:TX:t=P:problem:kreska pseudotaktowa	!	!	!	!LO:TX:t=P:problem:kreska pseudotaktowa	!LO:TX:t=P:problem:kreska pseudotaktowa	!
8GG/	.	8GG/	.	.	.	8GG/	8dd\J	.
=101-	=101-	=101-	=101-	=101-	=101-	=101-	=101-	=101-
8.EE/L	6	8.EE/L	4cny/	8gg\	4e/	8.EE/L	8.gny/L	8r
.	.	.	.	4g/	.	.	.	8r
16FF/K	.	16FF/K	.	.	.	16FF/K	16a/K	.
8GG/J	.	8GG/J	8r	.	8d/	8GG/J	8b/J	8gg\
!	!	!	!	!LO:TX:t=P:problem:kreska pseudotaktowa	!	!	!	!
4CC/	.	4CC/	8r	4.g/	4e/	4CC/	8.cc\L	8.ee\L
.	.	.	8r	.	.	.	.	.
.	.	.	.	.	.	.	16dd\K	16ff\K
!LO:TX:t=P:problem:kreska pseudotaktowa	!	!LO:SIC:v:t=custos FF	!LO:TX:t=P:problem:kreska pseudotaktowa	!	!LO:TX:t=P:problem:kreska pseudotaktowa	!LO:TX:t=P:problem:kreska pseudotaktowa	!LO:TX:t=P:problem:kreska pseudotaktowa	!LO:TX:t=P:problem:kreska pseudotaktowa
8C/	.	8C/	8e\	.	8cc\	8C/	8ee\J	8gg\J
!	!	!LO:LB:g=original	!	!	!	!	!	!
=102-	=102-	=102-	=102-	=102-	=102-	=102-	=102-	=102-
4FF/	.	4FF/	4c/	4f/	4a/	4FF/	4ff\	8.aa\L
.	.	.	.	.	.	.	.	16bb\K
8EE/	6	8EE/	8c/	8g/	8g/	8EE/	8cc\	8ccc\J
4FF/	6 5	4FF/	4c/	8.f/L	4a/	4FF/	4cc\	4dd\
.	.	.	.	16e/K	.	.	.	.
!	!	!LO:TX:t=P:problem:kreska pseudotaktowa	!LO:SIC:v:t=custos G	!LO:TX:t=P:problem:kreska pseudotaktowa	!	!LO:TX:t=P:problem:kreska pseudotaktowa	!LO:TX:t=P:problem:kreska pseudotaktowa	!LO:SIC:v:t=custos e
8GG/	6	8GG/	8G/	8d/J	16g/LL	8GG/	8b/	8dd\
!	!	!	!	!	!LO:TX:t=P:problem:kreska pseudotaktowa	!	!	!
.	.	.	.	.	16f/JJ	.	.	.
!LO:LB:g=original	!	!	!LO:LB:g=original	!	!	!	!	!LO:LB:g=original
=103-	=103-	=103-	=103-	=103-	=103-	=103-	=103-	=103-
[4.C/	.	[4.C/	[4.G/	[4.c/	[4.e/	[4.C/	[4.cc\	[4.ee\
4C]	.	4C]	4G]	4c/]	4e]	4C/]	4cc\]	4ee\]
8r;yy	.	8r;yy	8r;yy	8r;yy	8r;yy	8r;yy	8r;yy	8r;<yy
=:||:	=:||:	=:||:	=:||:	=:||:	=:||:	=:||:	=:||:	=:||:
*-	*-	*-	*-	*-	*-	*-	*-	*-
!!!RDF**kern: < = below
!!!system-decoration: s1,s2,s3[(s4,s5,s6)]s7,s8
!!!ENC: Andrzej Borzym
!!!END: 2022-01-25
!!!ENC: Urszula Świątek
!!!END: 2022-01-29
